Light/Corridor/Assets/PostProcessing-2/PostProcessing/Textures/LUTs/myLUTPS.cube
#Created by: Adobe Photoshop Export Color Lookup Plugin
TITLE "myLUT"
#LUT size
LUT_3D_SIZE 9
#data domain
DOMAIN_MIN 0.0 0.0 0.0
DOMAIN_MAX 1.0 1.0 1.0
#LUT data points
0.000000 0.000000 0.000000
0.009888 0.000000 0.000000
0.036926 0.001068 0.001068
0.103577 0.005157 0.005157
0.266418 0.009796 0.009796
0.665894 0.014923 0.014923
1.000000 0.020599 0.020599
1.000000 0.027405 0.027405
1.000000 0.036560 0.036560
0.013245 0.012726 0.012726
0.013245 0.013245 0.012726
0.013397 0.013397 0.013397
0.014282 0.014282 0.014282
0.015289 0.015808 0.015289
0.016846 0.017365 0.016327
0.018555 0.019073 0.018036
0.020935 0.020294 0.019073
0.022003 0.019440 0.017334
0.464081 0.587769 0.741089
0.467224 0.592010 0.764069
0.480133 0.609467 0.769989
0.483276 0.613678 0.792969
0.483276 0.613678 0.792969
0.383759 0.480408 0.622681
0.056549 0.069427 0.085480
0.029999 0.024353 0.021118
0.045654 0.033569 0.023682
0.435120 0.548981 0.706268
0.451172 0.570679 0.735168
0.451172 0.570679 0.735168
0.464081 0.587769 0.741089
0.464081 0.587769 0.741089
0.359802 0.458008 0.579651
0.048004 0.056580 0.071136
0.015808 0.015289 0.015289
0.019073 0.016510 0.015472
0.206207 0.151062 0.107941
0.214203 0.152985 0.111603
0.212372 0.152008 0.108673
0.206207 0.148071 0.107941
0.192963 0.138214 0.100677
0.186310 0.133301 0.097046
0.174286 0.127350 0.092651
0.151093 0.112579 0.083923
0.089874 0.069427 0.054108
0.182281 0.133301 0.099213
0.187622 0.134308 0.099976
0.180969 0.129333 0.096313
0.163635 0.119446 0.091187
0.133362 0.099274 0.076630
0.111755 0.087646 0.069397
0.088409 0.071686 0.056946
0.067780 0.056580 0.050446
0.049683 0.047211 0.043549
0.140228 0.137299 0.119476
0.114594 0.109497 0.096344
0.086212 0.078339 0.066620
0.073395 0.059967 0.048401
0.077271 0.065582 0.053741
0.101501 0.092743 0.079987
0.150085 0.147125 0.129333
0.226440 0.226440 0.194031
0.300140 0.292877 0.253021
0.249603 0.207306 0.203339
0.221252 0.162201 0.127289
0.206207 0.148071 0.107941
0.206207 0.148071 0.107941
0.199585 0.143127 0.104309
0.192963 0.138214 0.100677
0.174286 0.127350 0.092651
0.151093 0.110199 0.083923
0.133362 0.099274 0.076630
0.302216 0.359894 0.448425
0.229858 0.245941 0.283386
0.167542 0.155579 0.159546
0.142212 0.115570 0.101440
0.143219 0.113586 0.093414
0.147125 0.114563 0.094147
0.138306 0.109467 0.089783
0.129425 0.102936 0.085419
0.124481 0.099274 0.081757
0.000000 0.000000 0.009888
0.009888 0.000000 0.009888
0.036926 0.001068 0.015015
0.103577 0.005157 0.020721
0.266418 0.009796 0.027557
0.665894 0.014923 0.036743
1.000000 0.020599 0.048218
1.000000 0.027405 0.062256
1.000000 0.036560 0.079956
0.011017 0.011017 0.011017
0.011139 0.011139 0.011597
0.011017 0.011017 0.011017
0.011017 0.011017 0.011017
0.011139 0.011139 0.011597
0.011139 0.011139 0.011597
0.011139 0.011139 0.011597
0.011749 0.011749 0.011749
0.017365 0.015289 0.013763
0.464081 0.587769 0.741089
0.467224 0.592010 0.764069
0.480133 0.609467 0.769989
0.483276 0.613678 0.792969
0.496185 0.618103 0.798889
0.371887 0.473938 0.601166
0.054535 0.066681 0.081848
0.029999 0.024353 0.021118
0.045654 0.032654 0.023682
0.435120 0.548981 0.706268
0.451172 0.570679 0.735168
0.451172 0.570679 0.735168
0.464081 0.587769 0.741089
0.464081 0.587769 0.741089
0.359802 0.458008 0.579651
0.050049 0.058868 0.073944
0.016663 0.016144 0.016144
0.019073 0.016510 0.015472
0.212372 0.152008 0.108673
0.221344 0.158203 0.112457
0.221344 0.158203 0.112457
0.214203 0.152985 0.111603
0.199585 0.143127 0.104309
0.187622 0.137238 0.099976
0.174286 0.124420 0.092651
0.146210 0.106598 0.080536
0.089874 0.069427 0.054108
0.175598 0.125397 0.095581
0.169006 0.123444 0.091949
0.157043 0.114563 0.087585
0.137329 0.102203 0.077179
0.108063 0.083984 0.066620
0.085480 0.069427 0.056549
0.065033 0.055786 0.048431
0.049683 0.047211 0.043549
0.037476 0.039276 0.039276
0.150085 0.150085 0.129333
0.123474 0.117554 0.100739
0.092773 0.081818 0.069977
0.078400 0.063324 0.050873
0.079529 0.067780 0.054138
0.101501 0.094940 0.079987
0.150085 0.147125 0.129333
0.226440 0.226440 0.194031
0.300140 0.292877 0.253021
0.309601 0.309601 0.352905
0.267365 0.224548 0.219238
0.231964 0.170166 0.136169
0.214203 0.152985 0.111603
0.206207 0.148071 0.107941
0.199585 0.143127 0.104309
0.174286 0.127350 0.092651
0.146210 0.106598 0.080536
0.124481 0.094910 0.073303
0.228119 0.238800 0.276245
0.160919 0.150024 0.150024
0.137299 0.110931 0.097809
0.139252 0.110199 0.092682
0.147125 0.114563 0.094147
0.147125 0.114563 0.094147
0.142212 0.110199 0.090515
0.137299 0.106567 0.086823
0.128448 0.102203 0.082520
0.001068 0.001068 0.036926
0.015015 0.001068 0.036926
0.036926 0.001068 0.036926
0.103577 0.005157 0.048431
0.266418 0.009796 0.062622
0.665894 0.014923 0.080261
1.000000 0.020599 0.103088
1.000000 0.027405 0.131287
1.000000 0.036560 0.165863
0.011017 0.011017 0.011017
0.011139 0.011139 0.011597
0.011017 0.011017 0.011017
0.011017 0.011017 0.011017
0.011139 0.011139 0.011597
0.010406 0.010834 0.010834
0.010406 0.010406 0.010834
0.011597 0.011597 0.011139
0.015808 0.014282 0.012726
0.467224 0.592010 0.764069
0.467224 0.592010 0.764069
0.480133 0.609467 0.769989
0.483276 0.613678 0.792969
0.480133 0.609467 0.769989
0.381409 0.477112 0.605408
0.054535 0.066681 0.081848
0.030273 0.024567 0.022003
0.041962 0.029938 0.022400
0.435120 0.548981 0.706268
0.451172 0.570679 0.735168
0.451172 0.570679 0.735168
0.467224 0.592010 0.764069
0.464081 0.587769 0.741089
0.359802 0.458008 0.579651
0.045990 0.054535 0.068390
0.015106 0.015106 0.015106
0.019073 0.016510 0.015472
0.206207 0.148071 0.107941
0.212372 0.152008 0.108673
0.221344 0.158203 0.112457
0.221344 0.154205 0.112457
0.212372 0.149017 0.108673
0.192963 0.138214 0.100677
0.167725 0.122467 0.089050
0.146210 0.108765 0.080536
0.089874 0.069427 0.054108
0.175598 0.125397 0.095581
0.157043 0.114563 0.087585
0.137329 0.102203 0.077179
0.115662 0.088379 0.069946
0.082581 0.067230 0.056152
0.060577 0.053741 0.047638
0.046021 0.043579 0.041138
0.037170 0.038055 0.038055
0.032349 0.035980 0.036865
0.121460 0.121460 0.105835
0.102936 0.100769 0.085449
0.084778 0.075592 0.062195
0.075623 0.062195 0.048828
0.079529 0.066132 0.054138
0.101501 0.092743 0.079987
0.150085 0.147125 0.129333
0.226440 0.221130 0.194031
0.300140 0.292877 0.253021
0.357544 0.406433 0.503174
0.321564 0.321564 0.364899
0.270935 0.233490 0.233490
0.233704 0.171448 0.140076
0.214203 0.152985 0.111603
0.199585 0.143127 0.104309
0.180969 0.129333 0.096313
0.147186 0.109467 0.083191
0.124481 0.094910 0.073303
0.164886 0.149994 0.147064
0.136322 0.110229 0.094879
0.134338 0.108765 0.089050
0.138306 0.109467 0.089783
0.138306 0.109467 0.089783
0.143219 0.113586 0.093414
0.137299 0.106567 0.086823
0.137299 0.106567 0.086823
0.137299 0.106567 0.086823
0.005157 0.005157 0.103577
0.020721 0.005157 0.103577
0.048431 0.005157 0.103577
0.103577 0.005157 0.103577
0.266418 0.009796 0.131927
0.665894 0.014923 0.166779
1.000000 0.020599 0.208893
1.000000 0.027405 0.265167
1.000000 0.036560 0.335144
0.011139 0.011139 0.011597
0.011139 0.011139 0.011597
0.011139 0.011139 0.011597
0.011017 0.011017 0.011017
0.010406 0.010834 0.010834
0.010406 0.010834 0.010834
0.010406 0.010834 0.010834
0.012390 0.011902 0.011902
0.015808 0.014282 0.012726
0.464081 0.587769 0.741089
0.467224 0.592010 0.764069
0.480133 0.609467 0.769989
0.496185 0.618103 0.798889
0.480133 0.609467 0.769989
0.371887 0.473938 0.601166
0.054535 0.066681 0.081848
0.027802 0.022644 0.020691
0.040497 0.029663 0.022186
0.435120 0.548981 0.706268
0.435120 0.548981 0.706268
0.451172 0.570679 0.735168
0.464081 0.587769 0.741089
0.464081 0.587769 0.741089
0.383759 0.490143 0.622681
0.048004 0.056580 0.071136
0.017365 0.017853 0.018890
0.018738 0.017181 0.016663
0.194244 0.142181 0.103607
0.206207 0.148071 0.107941
0.212372 0.152008 0.108673
0.221344 0.154205 0.112457
0.212372 0.149017 0.108673
0.192963 0.138214 0.100677
0.169006 0.123444 0.091949
0.146210 0.108765 0.080536
0.089874 0.071136 0.054108
0.169006 0.123444 0.091949
0.146210 0.106598 0.080536
0.123535 0.092010 0.071045
0.094238 0.072784 0.057770
0.060028 0.052124 0.045990
0.042358 0.041138 0.039246
0.034454 0.036255 0.036255
0.029358 0.032959 0.033875
0.028442 0.033875 0.034760
0.084747 0.086914 0.077209
0.078369 0.075012 0.064972
0.072845 0.064453 0.052917
0.072845 0.059418 0.046783
0.079529 0.066132 0.054138
0.097870 0.089111 0.077240
0.145111 0.142181 0.124359
0.217560 0.217560 0.187408
0.290527 0.290527 0.251251
0.378967 0.464325 0.588135
0.357544 0.416168 0.503174
0.323944 0.331207 0.374451
0.270935 0.233490 0.238800
0.217682 0.163513 0.134216
0.200897 0.144135 0.107239
0.179626 0.128326 0.093384
0.151093 0.110199 0.083923
0.133362 0.101471 0.076630
0.140228 0.113586 0.095612
0.134338 0.106567 0.089050
0.138306 0.109467 0.089783
0.134338 0.106567 0.089050
0.133362 0.105835 0.086121
0.137299 0.106567 0.086823
0.137299 0.106567 0.086823
0.137299 0.106567 0.086823
0.141235 0.107300 0.087585
0.009796 0.009796 0.266418
0.027557 0.009796 0.266418
0.062622 0.009796 0.266418
0.131927 0.009796 0.266418
0.266418 0.009796 0.266418
0.665894 0.014923 0.336700
1.000000 0.020599 0.422638
1.000000 0.027405 0.526764
1.000000 0.036560 0.663239
0.011139 0.011139 0.011597
0.011139 0.011139 0.011597
0.011139 0.011139 0.011597
0.011139 0.011139 0.011597
0.010406 0.010834 0.010834
0.010406 0.010834 0.010834
0.010406 0.010406 0.010834
0.012207 0.011749 0.011292
0.016663 0.014618 0.013580
0.451172 0.570679 0.735168
0.467224 0.592010 0.764069
0.480133 0.609467 0.769989
0.483276 0.613678 0.792969
0.480133 0.609467 0.769989
0.371887 0.473938 0.601166
0.054138 0.064453 0.079529
0.027802 0.023285 0.020691
0.038086 0.028198 0.021759
0.435120 0.548981 0.706268
0.435120 0.548981 0.706268
0.451172 0.570679 0.735168
0.464081 0.587769 0.741089
0.467224 0.592010 0.764069
0.448029 0.553375 0.711945
0.335815 0.425781 0.536621
0.079437 0.098572 0.123535
0.061035 0.072784 0.089844
0.187622 0.137238 0.099976
0.194244 0.142181 0.103607
0.204865 0.147095 0.105042
0.212372 0.149017 0.108673
0.204865 0.144104 0.105042
0.192963 0.138214 0.100677
0.169006 0.123444 0.091949
0.141235 0.105133 0.077728
0.086945 0.068878 0.053680
0.155731 0.113586 0.084656
0.140259 0.102203 0.075500
0.106628 0.080597 0.062164
0.073944 0.060547 0.050049
0.048859 0.043976 0.040436
0.034454 0.036255 0.035370
0.029358 0.032959 0.033875
0.028198 0.032684 0.033569
0.029663 0.034180 0.035065
0.059418 0.061096 0.055328
0.059448 0.056580 0.050476
0.064453 0.055359 0.046783
0.070587 0.057404 0.046387
0.073944 0.062225 0.050049
0.093475 0.084747 0.072205
0.130341 0.127411 0.110199
0.202087 0.198120 0.174133
0.270935 0.270935 0.233490
0.399872 0.496582 0.644379
0.378967 0.473938 0.588135
0.369415 0.422485 0.519165
0.316772 0.331207 0.381714
0.256653 0.229919 0.235260
0.210571 0.158203 0.133209
0.180969 0.132324 0.096313
0.157043 0.114563 0.087585
0.138306 0.102905 0.079437
0.134338 0.106567 0.089050
0.134338 0.106567 0.089050
0.134338 0.106567 0.089050
0.133362 0.105835 0.086121
0.133362 0.105835 0.086121
0.132355 0.102905 0.083221
0.132355 0.105133 0.083221
0.136322 0.105835 0.083954
0.136322 0.105835 0.083954
0.014923 0.014923 0.665894
0.036743 0.014923 0.665894
0.080261 0.014923 0.665894
0.166779 0.014923 0.665894
0.336700 0.014923 0.665894
0.665894 0.014923 0.665894
1.000000 0.020599 0.837738
1.000000 0.027405 1.000000
1.000000 0.036560 1.000000
0.010406 0.010834 0.010834
0.010406 0.010834 0.010834
0.010406 0.010834 0.010834
0.010406 0.010834 0.010834
0.010406 0.010834 0.010834
0.010406 0.010834 0.010834
0.010406 0.010406 0.010834
0.013062 0.012054 0.012054
0.018036 0.015472 0.013916
0.464081 0.587769 0.741089
0.467224 0.592010 0.764069
0.467224 0.592010 0.764069
0.483276 0.613678 0.792969
0.480133 0.609467 0.769989
0.369415 0.461060 0.583893
0.054138 0.064453 0.079529
0.025879 0.022003 0.019409
0.035370 0.026276 0.020477
0.435120 0.548981 0.706268
0.435120 0.548981 0.706268
0.451172 0.570679 0.735168
0.464081 0.587769 0.741089
0.467224 0.592010 0.764069
0.467224 0.592010 0.764069
0.464081 0.587769 0.741089
0.399872 0.496582 0.644379
0.220978 0.269043 0.343384
0.194244 0.142181 0.103607
0.192963 0.138214 0.100677
0.199585 0.143127 0.104309
0.204865 0.144104 0.105042
0.204865 0.144104 0.105042
0.192963 0.138214 0.100677
0.174286 0.127350 0.092651
0.146210 0.108765 0.080536
0.089874 0.071136 0.054108
0.140259 0.102203 0.075500
0.116638 0.086914 0.063812
0.092804 0.070007 0.054504
0.063904 0.052521 0.045166
0.043152 0.039886 0.037170
0.036560 0.036560 0.035645
0.035065 0.035065 0.034149
0.036865 0.037750 0.035950
0.039551 0.039551 0.038666
0.042755 0.046417 0.042755
0.046021 0.044800 0.041138
0.055389 0.049255 0.041901
0.063354 0.053314 0.043549
0.068939 0.057404 0.047607
0.083313 0.076141 0.066071
0.115570 0.112579 0.099274
0.168915 0.168915 0.144104
0.226440 0.226440 0.194031
0.399872 0.496582 0.644379
0.399872 0.506042 0.644379
0.393402 0.480255 0.609650
0.362244 0.432098 0.532227
0.316772 0.331207 0.381714
0.256653 0.229919 0.235260
0.198181 0.151001 0.127289
0.169006 0.123444 0.091949
0.138306 0.105133 0.079437
0.129425 0.102936 0.085419
0.129425 0.105133 0.085419
0.133362 0.103668 0.086121
0.137299 0.106567 0.086823
0.133362 0.105835 0.086121
0.132355 0.102905 0.083221
0.137299 0.106567 0.086823
0.136322 0.105835 0.083954
0.132355 0.105133 0.083221
0.020599 0.020599 1.000000
0.048218 0.020599 1.000000
0.103088 0.020599 1.000000
0.208893 0.020599 1.000000
0.422638 0.020599 1.000000
0.837738 0.020599 1.000000
1.000000 0.020599 1.000000
1.000000 0.027405 1.000000
1.000000 0.036560 1.000000
0.011139 0.011139 0.011597
0.010406 0.010834 0.010834
0.010406 0.010834 0.010834
0.010559 0.011017 0.011444
0.010559 0.011017 0.011444
0.010559 0.011017 0.011444
0.010406 0.010834 0.010834
0.012390 0.011902 0.011902
0.018036 0.015472 0.013916
0.451172 0.570679 0.735168
0.467224 0.592010 0.764069
0.480133 0.596405 0.769989
0.480133 0.609467 0.769989
0.464081 0.587769 0.741089
0.335815 0.416168 0.536621
0.049652 0.057007 0.071716
0.023712 0.019867 0.017700
0.032684 0.024994 0.019226
0.435120 0.548981 0.706268
0.435120 0.548981 0.706268
0.451172 0.570679 0.735168
0.464081 0.587769 0.741089
0.480133 0.596405 0.769989
0.480133 0.609467 0.769989
0.480133 0.609467 0.769989
0.448029 0.566437 0.711945
0.247559 0.307220 0.379364
0.214203 0.152985 0.111603
0.204865 0.147095 0.105042
0.199585 0.143127 0.104309
0.199585 0.143127 0.104309
0.199585 0.143127 0.104309
0.199585 0.143127 0.104309
0.174286 0.124420 0.092651
0.151093 0.112579 0.083923
0.093506 0.073914 0.056152
0.113678 0.086914 0.065491
0.095734 0.072235 0.054901
0.075623 0.058868 0.048828
0.054962 0.047638 0.040436
0.044403 0.040771 0.036255
0.048065 0.043152 0.038055
0.051300 0.045166 0.038635
0.053345 0.047211 0.040131
0.055389 0.049255 0.041901
0.031769 0.034454 0.034454
0.036560 0.037476 0.034760
0.044800 0.041107 0.037445
0.054962 0.047638 0.040436
0.061676 0.053314 0.044769
0.072266 0.067230 0.057373
0.096405 0.094238 0.081146
0.135254 0.135254 0.114532
0.175537 0.175537 0.149017
0.399872 0.506042 0.644379
0.399872 0.506042 0.644379
0.399872 0.506042 0.644379
0.396576 0.493164 0.626923
0.371796 0.435242 0.536469
0.316772 0.331207 0.381714
0.258484 0.237061 0.247772
0.198181 0.158234 0.142090
0.160980 0.126343 0.107239
0.125458 0.102203 0.084656
0.129425 0.102936 0.085419
0.133362 0.105835 0.086121
0.137299 0.106567 0.086823
0.133362 0.105835 0.086121
0.132355 0.102905 0.083221
0.136322 0.105835 0.083954
0.136322 0.105835 0.083954
0.127441 0.101471 0.079987
0.027405 0.027405 1.000000
0.062256 0.027405 1.000000
0.131287 0.027405 1.000000
0.265167 0.027405 1.000000
0.526764 0.027405 1.000000
1.000000 0.027405 1.000000
1.000000 0.027405 1.000000
1.000000 0.027405 1.000000
1.000000 0.036560 1.000000
0.011139 0.011139 0.011597
0.010406 0.010834 0.010834
0.010559 0.011017 0.011444
0.010559 0.011017 0.011444
0.010406 0.010834 0.010834
0.010406 0.010834 0.010834
0.010406 0.010834 0.010834
0.012390 0.011902 0.011902
0.018036 0.015472 0.013916
0.451172 0.570679 0.735168
0.464081 0.587769 0.741089
0.467224 0.592010 0.764069
0.464081 0.587769 0.741089
0.415771 0.523407 0.665710
0.091980 0.107300 0.135315
0.024567 0.025208 0.027130
0.022644 0.018890 0.016815
0.030273 0.023926 0.018890
0.435120 0.548981 0.706268
0.435120 0.548981 0.706268
0.451172 0.570679 0.735168
0.464081 0.587769 0.741089
0.467224 0.592010 0.764069
0.480133 0.609467 0.769989
0.480133 0.609467 0.769989
0.448029 0.566437 0.711945
0.249359 0.309692 0.390778
0.214203 0.152985 0.111603
0.212372 0.149017 0.108673
0.206207 0.148071 0.107941
0.204865 0.147095 0.105042
0.204865 0.144104 0.105042
0.199585 0.143127 0.104309
0.186310 0.133301 0.097046
0.162323 0.118469 0.088287
0.100067 0.077271 0.058807
0.089874 0.069427 0.054108
0.072845 0.057800 0.046783
0.058350 0.048431 0.041077
0.052948 0.045593 0.038940
0.056610 0.048035 0.040741
0.062805 0.051697 0.041901
0.067810 0.055359 0.044342
0.070587 0.057404 0.046387
0.072845 0.057800 0.046783
0.026703 0.029663 0.029663
0.031158 0.032074 0.031158
0.036865 0.035065 0.032349
0.047668 0.041534 0.036865
0.051727 0.045593 0.039856
0.058868 0.054962 0.048828
0.073914 0.072235 0.063873
0.097137 0.097137 0.084015
0.125427 0.122437 0.106567
0.399872 0.506042 0.644379
0.399872 0.506042 0.644379
0.415771 0.512512 0.665710
0.415771 0.523407 0.665710
0.409332 0.496460 0.631134
0.383881 0.451447 0.557953
0.335907 0.364716 0.435516
0.276154 0.281555 0.316864
0.237061 0.237061 0.258484
0.036560 1.000000 1.000000
0.102631 1.000000 1.000000
0.264160 1.000000 1.000000
0.660583 1.000000 1.000000
1.000000 1.000000 1.000000
1.000000 1.000000 1.000000
1.000000 1.000000 1.000000
1.000000 1.000000 1.000000
1.000000 1.000000 1.000000
0.036560 0.036560 1.000000
0.079956 0.036560 1.000000
0.165863 0.036560 1.000000
0.335144 0.036560 1.000000
0.663239 0.036560 1.000000
1.000000 0.036560 1.000000
1.000000 0.036560 1.000000
1.000000 0.036560 1.000000
1.000000 0.036560 1.000000
0.011139 0.011139 0.011597
0.010406 0.010834 0.010834
0.010406 0.010834 0.010834
0.011017 0.011017 0.011017
0.011139 0.011139 0.011597
0.010406 0.010834 0.010834
0.010559 0.011017 0.011444
0.013062 0.012054 0.012054
0.018036 0.015472 0.013916
0.451172 0.570679 0.735168
0.464081 0.587769 0.741089
0.467224 0.592010 0.764069
0.464081 0.575073 0.741089
0.359802 0.458008 0.579651
0.052521 0.057404 0.070587
0.015808 0.015289 0.015289
0.020721 0.017853 0.015808
0.029083 0.023071 0.018707
0.435120 0.548981 0.706268
0.435120 0.548981 0.706268
0.451172 0.570679 0.735168
0.451172 0.570679 0.735168
0.467224 0.592010 0.764069
0.480133 0.609467 0.769989
0.480133 0.609467 0.769989
0.448029 0.566437 0.711945
0.249359 0.309692 0.390778
0.206207 0.148071 0.107941
0.212372 0.149017 0.108673
0.212372 0.152008 0.108673
0.212372 0.149017 0.108673
0.212372 0.149017 0.108673
0.204865 0.144104 0.105042
0.198212 0.139191 0.101379
0.174286 0.127350 0.092651
0.118591 0.090576 0.068268
0.076721 0.063324 0.052063
0.064453 0.054138 0.046783
0.054565 0.047241 0.039246
0.060547 0.051300 0.041504
0.065582 0.053741 0.043945
0.072845 0.057800 0.046783
0.078400 0.063324 0.050873
0.084076 0.068329 0.053284
0.087708 0.071136 0.055328
0.024780 0.027344 0.027985
0.027344 0.028748 0.028748
0.034454 0.033569 0.031769
0.042755 0.039551 0.035950
0.048065 0.043152 0.038055
0.055786 0.050903 0.043549
0.063904 0.057404 0.051270
0.075043 0.070038 0.059967
0.087677 0.083282 0.071106
0.399872 0.506042 0.644379
0.403015 0.509216 0.661469
0.415771 0.523407 0.665710
0.428680 0.527466 0.669952
0.428680 0.527466 0.669952
0.425507 0.512512 0.652832
0.403015 0.480408 0.596771
0.381500 0.448273 0.540863
0.369415 0.432098 0.519165
0.036560 1.000000 1.000000
0.102631 1.000000 1.000000
0.264160 1.000000 1.000000
0.660583 1.000000 1.000000
1.000000 1.000000 1.000000
1.000000 1.000000 1.000000
1.000000 1.000000 1.000000
1.000000 1.000000 1.000000
1.000000 1.000000 1.000000
