Light/Corridor/Assets/PostProcessing-2/PostProcessing/Textures/LUTs/myLUTPS.cube
#Created by: Adobe Photoshop Export Color Lookup Plugin
TITLE "myLUT"
#LUT size
LUT_3D_SIZE 33
#data domain
DOMAIN_MIN 0.0 0.0 0.0
DOMAIN_MAX 1.0 1.0 1.0
#LUT data points
0.000000 0.000000 0.000000
0.000000 0.000000 0.000000
0.001129 0.000000 0.000000
0.005219 0.000000 0.000000
0.009888 0.000000 0.000000
0.015045 0.000000 0.000000
0.020813 0.000000 0.000000
0.027649 0.000000 0.000000
0.036926 0.001068 0.001068
0.048523 0.002106 0.002106
0.062805 0.003113 0.003113
0.080566 0.004150 0.004150
0.103577 0.005157 0.005157
0.132080 0.006226 0.006226
0.167114 0.007416 0.007416
0.209686 0.008606 0.008606
0.266418 0.009796 0.009796
0.337006 0.010986 0.010986
0.423553 0.012177 0.012177
0.528534 0.013550 0.013550
0.665894 0.014923 0.014923
0.838898 0.016266 0.016266
1.000000 0.017639 0.017639
1.000000 0.018982 0.018982
1.000000 0.020599 0.020599
1.000000 0.022308 0.022308
1.000000 0.024017 0.024017
1.000000 0.025696 0.025696
1.000000 0.027405 0.027405
1.000000 0.029419 0.029419
1.000000 0.031799 0.031799
1.000000 0.034180 0.034180
1.000000 0.036560 0.036560
0.000000 0.000000 0.000000
0.000000 0.000000 0.000000
0.001129 0.000000 0.000000
0.005219 0.000000 0.000000
0.009888 0.000000 0.000000
0.015045 0.001099 0.000000
0.020813 0.002106 0.000000
0.027649 0.003143 0.000000
0.036926 0.004150 0.001068
0.048523 0.005188 0.002106
0.062805 0.006256 0.003113
0.080566 0.007446 0.004150
0.103577 0.008636 0.005157
0.132080 0.009827 0.006226
0.167114 0.011017 0.007416
0.209686 0.012207 0.008606
0.266418 0.013580 0.009796
0.337006 0.014923 0.010986
0.423553 0.016296 0.012177
0.528534 0.017670 0.013550
0.665894 0.019012 0.014923
0.838898 0.020630 0.016266
1.000000 0.022339 0.017639
1.000000 0.024048 0.018982
1.000000 0.025757 0.020599
1.000000 0.027435 0.022308
1.000000 0.029480 0.024017
1.000000 0.031860 0.025696
1.000000 0.034210 0.027405
1.000000 0.036591 0.029419
1.000000 0.039001 0.031799
1.000000 0.041534 0.034180
1.000000 0.044769 0.036560
0.012726 0.013245 0.013245
0.013580 0.014099 0.014099
0.013580 0.013580 0.014099
0.013580 0.013580 0.014099
0.013580 0.014099 0.014099
0.013580 0.014099 0.014099
0.013580 0.014099 0.014099
0.013580 0.014099 0.014099
0.012726 0.013245 0.013245
0.012726 0.013245 0.013245
0.012726 0.013245 0.013245
0.012726 0.013245 0.013245
0.013580 0.013580 0.014099
0.012726 0.013245 0.013245
0.012726 0.013245 0.013245
0.012726 0.013245 0.013245
0.012726 0.013245 0.013245
0.012726 0.013245 0.013245
0.012054 0.012543 0.013062
0.012726 0.013245 0.013245
0.012726 0.013245 0.013245
0.012726 0.013245 0.013245
0.012726 0.013245 0.013245
0.013580 0.014099 0.014099
0.013580 0.014099 0.014099
0.014435 0.014954 0.014435
0.014435 0.014954 0.014954
0.014435 0.014954 0.014435
0.015289 0.015808 0.015289
0.015289 0.015808 0.015289
0.016144 0.016663 0.016144
0.015991 0.016510 0.015472
0.016846 0.017365 0.016327
0.044403 0.040771 0.036255
0.046417 0.043945 0.037750
0.046814 0.045624 0.038940
0.051300 0.050079 0.043945
0.053345 0.052124 0.046021
0.055389 0.055389 0.048035
0.059998 0.059998 0.052094
0.065552 0.065552 0.056152
0.070587 0.070587 0.058838
0.076141 0.076141 0.064423
0.081848 0.081848 0.070007
0.085449 0.085449 0.072754
0.094238 0.096405 0.081146
0.096405 0.096405 0.081146
0.104401 0.106598 0.089081
0.108032 0.110229 0.092712
0.115570 0.115570 0.099274
0.120483 0.120483 0.102905
0.122437 0.125427 0.106567
0.130341 0.130341 0.110199
0.132324 0.135254 0.114532
0.135254 0.135254 0.114532
0.140228 0.140228 0.119476
0.141205 0.141205 0.123413
0.141205 0.141205 0.123413
0.145111 0.145111 0.124359
0.146118 0.146118 0.128357
0.141205 0.141205 0.123413
0.136292 0.136292 0.118530
0.131348 0.131348 0.113556
0.117554 0.117554 0.105103
0.101471 0.101471 0.090546
0.080048 0.080048 0.071655
0.013245 0.012726 0.012726
0.013245 0.012726 0.012726
0.013245 0.012726 0.012726
0.013245 0.012726 0.012726
0.013245 0.013245 0.012726
0.013245 0.012726 0.012726
0.013397 0.013397 0.013397
0.012573 0.012573 0.012573
0.013397 0.013397 0.013397
0.013397 0.013397 0.013397
0.013397 0.013397 0.013397
0.013580 0.014099 0.013580
0.014282 0.014282 0.014282
0.014435 0.014954 0.014435
0.015106 0.015106 0.015106
0.015289 0.015808 0.015289
0.015289 0.015808 0.015289
0.016144 0.016663 0.016144
0.016144 0.016663 0.016144
0.016663 0.016663 0.016144
0.016846 0.017365 0.016327
0.017700 0.018219 0.017181
0.017700 0.018219 0.017181
0.018555 0.019073 0.018036
0.018555 0.019073 0.018036
0.019226 0.019226 0.018707
0.019073 0.019073 0.018036
0.020081 0.020081 0.018890
0.020935 0.020294 0.019073
0.020721 0.020081 0.018372
0.021362 0.019440 0.017853
0.021362 0.019440 0.017853
0.022003 0.019440 0.017334
0.011139 0.011139 0.011597
0.011017 0.011017 0.011017
0.011017 0.011017 0.011017
0.011139 0.011139 0.011597
0.011017 0.011017 0.011017
0.011139 0.011139 0.011597
0.011017 0.011017 0.011017
0.011017 0.011017 0.011017
0.011017 0.011017 0.011017
0.011017 0.011017 0.011017
0.011139 0.011139 0.011597
0.011017 0.011017 0.011017
0.011017 0.011017 0.011017
0.011139 0.011139 0.011597
0.011139 0.011139 0.011597
0.010406 0.010834 0.010834
0.010406 0.010834 0.010834
0.010406 0.010834 0.010834
0.011139 0.011139 0.011597
0.011139 0.011139 0.011597
0.010406 0.010834 0.010834
0.011139 0.011139 0.011597
0.010406 0.010406 0.010834
0.011139 0.011139 0.011597
0.010406 0.010834 0.010834
0.011017 0.011017 0.011017
0.011017 0.011017 0.011017
0.012390 0.011902 0.011902
0.013062 0.012543 0.012054
0.013763 0.012726 0.012207
0.015137 0.013580 0.012543
0.017365 0.015289 0.013763
0.018738 0.016144 0.014099
0.307037 0.371979 0.474091
0.295044 0.359985 0.458160
0.281403 0.345642 0.429321
0.270782 0.324127 0.400391
0.251190 0.297607 0.362549
0.224457 0.267273 0.326599
0.213898 0.251343 0.305054
0.196655 0.224609 0.267365
0.176727 0.200684 0.240692
0.167480 0.187469 0.217621
0.148987 0.163513 0.195465
0.133240 0.145081 0.170227
0.121429 0.130310 0.148102
0.110901 0.116516 0.134308
0.102203 0.104370 0.116577
0.094910 0.097107 0.108063
0.091278 0.093445 0.104401
0.088348 0.092743 0.103699
0.097809 0.106598 0.122528
0.110901 0.128326 0.149109
0.138184 0.160919 0.196869
0.166138 0.198059 0.237213
0.188721 0.230011 0.278137
0.210266 0.258392 0.321869
0.237000 0.285614 0.357819
0.245789 0.304871 0.369812
0.245789 0.297607 0.369812
0.219238 0.267273 0.333862
0.195282 0.233490 0.288177
0.148010 0.174194 0.210571
0.110901 0.125427 0.149109
0.078888 0.082520 0.095673
0.054565 0.050873 0.052124
0.467224 0.592010 0.764069
0.467224 0.592010 0.764069
0.467224 0.592010 0.764069
0.467224 0.592010 0.764069
0.480133 0.609467 0.769989
0.483276 0.613678 0.792969
0.480133 0.609467 0.769989
0.480133 0.609467 0.769989
0.496185 0.618103 0.798889
0.483276 0.613678 0.792969
0.483276 0.613678 0.792969
0.496185 0.630981 0.798889
0.496185 0.630981 0.798889
0.496185 0.630981 0.798889
0.496185 0.630981 0.798889
0.496185 0.630981 0.798889
0.496185 0.630981 0.798889
0.512238 0.652496 0.827545
0.512238 0.639618 0.827545
0.512238 0.652496 0.827545
0.512238 0.652496 0.827545
0.512238 0.652496 0.827545
0.496185 0.630981 0.798889
0.480133 0.609467 0.769989
0.460785 0.570496 0.717621
0.412628 0.509338 0.648621
0.354980 0.441833 0.545105
0.295044 0.367249 0.458160
0.235168 0.277985 0.348206
0.164825 0.192780 0.230072
0.105804 0.115540 0.136292
0.067780 0.067780 0.072784
0.045624 0.039886 0.035339
0.464081 0.587769 0.741089
0.467224 0.592010 0.764069
0.467224 0.592010 0.764069
0.467224 0.592010 0.764069
0.467224 0.592010 0.764069
0.467224 0.592010 0.764069
0.480133 0.609467 0.769989
0.480133 0.609467 0.769989
0.480133 0.609467 0.769989
0.483276 0.613678 0.792969
0.483276 0.613678 0.792969
0.483276 0.613678 0.792969
0.483276 0.613678 0.792969
0.483276 0.613678 0.792969
0.496185 0.630981 0.798889
0.483276 0.613678 0.792969
0.483276 0.613678 0.792969
0.480133 0.609467 0.769989
0.448029 0.566437 0.711945
0.431976 0.544739 0.687408
0.383759 0.480408 0.622681
0.321472 0.396820 0.503021
0.242310 0.307220 0.387634
0.079437 0.098572 0.123535
0.056549 0.069427 0.085480
0.035339 0.038055 0.045624
0.022003 0.020081 0.020081
0.026093 0.022217 0.020264
0.029999 0.024353 0.021118
0.033569 0.026276 0.021759
0.036896 0.027344 0.021545
0.040771 0.030884 0.023041
0.045654 0.033569 0.023682
0.451172 0.570679 0.735168
0.451172 0.570679 0.735168
0.467224 0.592010 0.764069
0.464081 0.587769 0.741089
0.467224 0.592010 0.764069
0.467224 0.592010 0.764069
0.467224 0.592010 0.764069
0.464081 0.587769 0.741089
0.467224 0.592010 0.764069
0.464081 0.587769 0.741089
0.467224 0.592010 0.764069
0.464081 0.587769 0.741089
0.464081 0.575073 0.741089
0.448029 0.566437 0.711945
0.431976 0.532043 0.687408
0.399872 0.506042 0.644379
0.359802 0.458008 0.579651
0.299866 0.379242 0.483948
0.097809 0.113586 0.137299
0.079437 0.092010 0.109528
0.049255 0.056580 0.069489
0.027771 0.030243 0.035675
0.016144 0.016144 0.016663
0.016144 0.016144 0.016663
0.015991 0.015991 0.015991
0.016510 0.015991 0.015472
0.017181 0.016144 0.015625
0.019226 0.017181 0.016144
0.020721 0.017334 0.015808
0.021576 0.018036 0.015991
0.025208 0.020050 0.017334
0.026947 0.021149 0.017670
0.029083 0.023071 0.018707
0.451172 0.570679 0.735168
0.451172 0.570679 0.735168
0.451172 0.570679 0.735168
0.451172 0.570679 0.735168
0.451172 0.570679 0.735168
0.451172 0.570679 0.735168
0.451172 0.570679 0.735168
0.451172 0.570679 0.735168
0.464081 0.587769 0.741089
0.451172 0.570679 0.735168
0.464081 0.575073 0.741089
0.464081 0.587769 0.741089
0.448029 0.566437 0.711945
0.435120 0.548981 0.706268
0.415771 0.523407 0.665710
0.383759 0.490143 0.622681
0.335815 0.425781 0.536621
0.276031 0.345551 0.438812
0.093414 0.113586 0.143219
0.070526 0.084747 0.106628
0.047180 0.054535 0.066681
0.032349 0.034149 0.036865
0.020294 0.019073 0.016998
0.018555 0.017517 0.015961
0.016510 0.016510 0.015472
0.016327 0.015808 0.014771
0.016327 0.015289 0.014771
0.016846 0.015289 0.014252
0.017517 0.015991 0.014435
0.019867 0.017181 0.015625
0.022430 0.018707 0.016144
0.024353 0.019836 0.017181
0.026947 0.021790 0.017670
0.435120 0.548981 0.706268
0.435120 0.548981 0.706268
0.451172 0.570679 0.735168
0.451172 0.570679 0.735168
0.451172 0.570679 0.735168
0.451172 0.570679 0.735168
0.451172 0.570679 0.735168
0.451172 0.570679 0.735168
0.451172 0.570679 0.735168
0.451172 0.570679 0.735168
0.451172 0.570679 0.735168
0.451172 0.570679 0.735168
0.448029 0.566437 0.711945
0.431976 0.532043 0.687408
0.403015 0.509216 0.661469
0.383759 0.480408 0.622681
0.335815 0.425781 0.536621
0.268951 0.343292 0.435638
0.089783 0.109467 0.138306
0.067719 0.081146 0.102966
0.043549 0.052124 0.063354
0.024139 0.027344 0.033264
0.013062 0.013580 0.014618
0.012909 0.013397 0.013916
0.012909 0.012909 0.013916
0.012909 0.013397 0.013916
0.012726 0.012726 0.013245
0.013397 0.013397 0.013397
0.014771 0.014252 0.013733
0.017029 0.015991 0.014954
0.019073 0.017517 0.015472
0.022644 0.019440 0.016815
0.026276 0.022430 0.018188
0.435120 0.548981 0.706268
0.435120 0.548981 0.706268
0.435120 0.548981 0.706268
0.435120 0.548981 0.706268
0.451172 0.570679 0.735168
0.451172 0.570679 0.735168
0.451172 0.570679 0.735168
0.451172 0.570679 0.735168
0.451172 0.570679 0.735168
0.451172 0.570679 0.735168
0.451172 0.570679 0.735168
0.464081 0.587769 0.741089
0.464081 0.587769 0.741089
0.467224 0.592010 0.764069
0.467224 0.592010 0.764069
0.467224 0.592010 0.764069
0.464081 0.587769 0.741089
0.451172 0.570679 0.735168
0.431976 0.544739 0.687408
0.403015 0.509216 0.661469
0.359802 0.458008 0.579651
0.299866 0.379242 0.483948
0.224548 0.283295 0.362640
0.076660 0.094910 0.118591
0.048004 0.056580 0.071136
0.027985 0.031464 0.036896
0.015991 0.015472 0.016510
0.015808 0.015289 0.015808
0.015808 0.015289 0.015289
0.016510 0.015472 0.015472
0.017700 0.016144 0.015106
0.018372 0.016327 0.015289
0.019073 0.016510 0.015472
0.422089 0.544739 0.700348
0.435120 0.548981 0.706268
0.422089 0.544739 0.700348
0.435120 0.548981 0.706268
0.435120 0.548981 0.706268
0.435120 0.548981 0.706268
0.435120 0.548981 0.706268
0.451172 0.570679 0.735168
0.451172 0.570679 0.735168
0.451172 0.570679 0.735168
0.451172 0.570679 0.735168
0.451172 0.570679 0.735168
0.451172 0.570679 0.735168
0.451172 0.570679 0.735168
0.467224 0.592010 0.764069
0.464081 0.587769 0.741089
0.467224 0.592010 0.764069
0.480133 0.609467 0.769989
0.480133 0.609467 0.769989
0.480133 0.596405 0.769989
0.480133 0.609467 0.769989
0.480133 0.609467 0.769989
0.480133 0.609467 0.769989
0.480133 0.609467 0.769989
0.480133 0.609467 0.769989
0.480133 0.609467 0.769989
0.480133 0.609467 0.769989
0.464081 0.587769 0.741089
0.448029 0.566437 0.711945
0.428680 0.527466 0.669952
0.381409 0.477112 0.605408
0.321472 0.396820 0.503021
0.249359 0.309692 0.390778
0.418945 0.527649 0.682983
0.422089 0.531860 0.700348
0.435120 0.548981 0.706268
0.422089 0.544739 0.700348
0.435120 0.548981 0.706268
0.435120 0.548981 0.706268
0.435120 0.548981 0.706268
0.435120 0.548981 0.706268
0.435120 0.548981 0.706268
0.435120 0.548981 0.706268
0.451172 0.570679 0.735168
0.451172 0.570679 0.735168
0.451172 0.570679 0.735168
0.451172 0.570679 0.735168
0.451172 0.570679 0.735168
0.451172 0.570679 0.735168
0.464081 0.587769 0.741089
0.467224 0.592010 0.764069
0.464081 0.587769 0.741089
0.467224 0.592010 0.764069
0.467224 0.592010 0.764069
0.467224 0.592010 0.764069
0.480133 0.609467 0.769989
0.480133 0.609467 0.769989
0.480133 0.609467 0.769989
0.480133 0.609467 0.769989
0.480133 0.596405 0.769989
0.464081 0.587769 0.741089
0.448029 0.566437 0.711945
0.415771 0.523407 0.665710
0.371887 0.473938 0.601166
0.311859 0.393677 0.499878
0.233337 0.295227 0.374634
0.020508 0.017181 0.015106
0.021576 0.018036 0.015991
0.020508 0.017181 0.015106
0.020508 0.017700 0.015106
0.020508 0.017181 0.015106
0.021576 0.018036 0.015991
0.020508 0.017181 0.015106
0.020508 0.017181 0.015106
0.020508 0.017181 0.015106
0.021576 0.018036 0.015991
0.019653 0.016998 0.014954
0.020508 0.017700 0.015106
0.020508 0.017181 0.015106
0.019653 0.016998 0.014954
0.020508 0.017181 0.015106
0.019653 0.016998 0.014954
0.019653 0.016998 0.014954
0.019653 0.016510 0.014954
0.019653 0.016998 0.014954
0.020508 0.017181 0.015106
0.019653 0.016998 0.014954
0.019653 0.016998 0.014954
0.020508 0.017181 0.015106
0.019653 0.016998 0.014954
0.019653 0.016998 0.014954
0.020508 0.017181 0.015106
0.019653 0.016998 0.014954
0.019653 0.016510 0.014954
0.020508 0.017181 0.015106
0.020508 0.017181 0.015106
0.021362 0.017334 0.015289
0.020508 0.017181 0.015106
0.020508 0.017181 0.015106
0.206207 0.151062 0.107941
0.212372 0.152008 0.108673
0.212372 0.152008 0.108673
0.212372 0.152008 0.108673
0.214203 0.152985 0.111603
0.206207 0.148071 0.107941
0.212372 0.152008 0.108673
0.212372 0.152008 0.108673
0.212372 0.152008 0.108673
0.214203 0.152985 0.111603
0.212372 0.152008 0.108673
0.206207 0.148071 0.107941
0.206207 0.148071 0.107941
0.199585 0.143127 0.104309
0.198212 0.142181 0.101379
0.199585 0.143127 0.104309
0.192963 0.138214 0.100677
0.187622 0.137238 0.099976
0.187622 0.137238 0.099976
0.186310 0.133301 0.097046
0.186310 0.133301 0.097046
0.186310 0.133301 0.097046
0.180969 0.129333 0.096313
0.180969 0.129333 0.096313
0.174286 0.127350 0.092651
0.174286 0.127350 0.092651
0.169006 0.123444 0.091949
0.161011 0.117523 0.085388
0.151093 0.112579 0.083923
0.141235 0.105133 0.077728
0.127472 0.094910 0.071625
0.110291 0.084015 0.064911
0.089874 0.069427 0.054108
0.206207 0.148071 0.107941
0.206207 0.148071 0.107941
0.206207 0.148071 0.107941
0.212372 0.152008 0.108673
0.212372 0.149017 0.108673
0.212372 0.149017 0.108673
0.212372 0.149017 0.108673
0.212372 0.149017 0.108673
0.221344 0.154205 0.112457
0.219604 0.152985 0.109406
0.212372 0.152008 0.108673
0.221344 0.154205 0.112457
0.212372 0.149017 0.108673
0.212372 0.149017 0.108673
0.212372 0.149017 0.108673
0.204865 0.147095 0.105042
0.212372 0.149017 0.108673
0.210632 0.148071 0.105774
0.210632 0.148071 0.105774
0.212372 0.149017 0.108673
0.204865 0.147095 0.105042
0.212372 0.149017 0.108673
0.204865 0.144104 0.105042
0.204865 0.144104 0.105042
0.198212 0.142181 0.101379
0.198212 0.139191 0.101379
0.191589 0.134247 0.097748
0.186310 0.133301 0.097046
0.179626 0.128326 0.093384
0.167725 0.119476 0.089050
0.155731 0.113586 0.084656
0.146210 0.106598 0.080536
0.132416 0.098572 0.074402
0.194244 0.139221 0.103607
0.194244 0.139221 0.103607
0.194244 0.142181 0.103607
0.194244 0.142181 0.103607
0.199585 0.143127 0.104309
0.194244 0.142181 0.103607
0.200897 0.144135 0.107239
0.199585 0.143127 0.104309
0.199585 0.140198 0.104309
0.199585 0.143127 0.104309
0.199585 0.143127 0.104309
0.192963 0.138214 0.100677
0.194244 0.139221 0.103607
0.187622 0.134308 0.099976
0.187622 0.134308 0.099976
0.187622 0.134308 0.099976
0.187622 0.134308 0.099976
0.187622 0.134308 0.099976
0.192963 0.138214 0.100677
0.191589 0.134247 0.097748
0.192963 0.138214 0.100677
0.191589 0.134247 0.097748
0.191589 0.137238 0.097748
0.192963 0.138214 0.100677
0.186310 0.133301 0.097046
0.186310 0.133301 0.097046
0.186310 0.133301 0.097046
0.179626 0.128326 0.093384
0.174286 0.124420 0.092651
0.161011 0.117523 0.085388
0.155731 0.113586 0.084656
0.150116 0.109467 0.081085
0.146210 0.106598 0.080536
0.206207 0.148071 0.107941
0.212372 0.152008 0.108673
0.214203 0.152985 0.111603
0.206207 0.148071 0.107941
0.206207 0.148071 0.107941
0.199585 0.143127 0.104309
0.199585 0.143127 0.104309
0.199585 0.143127 0.104309
0.199585 0.143127 0.104309
0.199585 0.143127 0.104309
0.199585 0.143127 0.104309
0.204865 0.144104 0.105042
0.198212 0.142181 0.101379
0.199585 0.143127 0.104309
0.198212 0.139191 0.101379
0.199585 0.143127 0.104309
0.198212 0.139191 0.101379
0.198212 0.139191 0.101379
0.198212 0.139191 0.101379
0.191589 0.137238 0.097748
0.192963 0.138214 0.100677
0.186310 0.133301 0.097046
0.179626 0.128326 0.093384
0.175598 0.128326 0.095581
0.169006 0.123444 0.091949
0.162323 0.118469 0.088287
0.155731 0.113586 0.084656
0.146210 0.106598 0.080536
0.142242 0.105835 0.079987
0.128448 0.097839 0.073822
0.128448 0.095642 0.073822
0.119568 0.091278 0.070496
0.119568 0.091278 0.070496
0.182281 0.133301 0.099213
0.180969 0.132324 0.096313
0.187622 0.134308 0.099976
0.187622 0.134308 0.099976
0.187622 0.134308 0.099976
0.187622 0.134308 0.099976
0.186310 0.133301 0.097046
0.180969 0.129333 0.096313
0.180969 0.129333 0.096313
0.179626 0.128326 0.093384
0.174286 0.124420 0.092651
0.169006 0.123444 0.091949
0.163635 0.119446 0.091187
0.151093 0.112579 0.083923
0.147186 0.107300 0.083191
0.142242 0.105835 0.079987
0.133362 0.099274 0.076630
0.129425 0.098572 0.076080
0.124481 0.094910 0.073303
0.120575 0.092041 0.072754
0.111755 0.087646 0.069397
0.108063 0.083984 0.066620
0.101501 0.078339 0.063263
0.098633 0.077820 0.062714
0.088409 0.071686 0.056946
0.085480 0.069427 0.056549
0.080078 0.066681 0.055756
0.072266 0.060547 0.051270
0.067780 0.056580 0.050446
0.063354 0.055786 0.049652
0.058319 0.052124 0.047211
0.052917 0.049255 0.044373
0.049683 0.047211 0.043549
0.077271 0.065582 0.053741
0.075043 0.063324 0.053314
0.070038 0.059967 0.050873
0.067230 0.057404 0.048828
0.065033 0.055786 0.048431
0.062225 0.053741 0.046387
0.057404 0.051300 0.043945
0.057007 0.049652 0.042328
0.057007 0.049652 0.042328
0.056610 0.049255 0.040741
0.058350 0.049652 0.041077
0.060547 0.050049 0.041504
0.060028 0.049652 0.040131
0.062805 0.051697 0.041901
0.062805 0.051697 0.041901
0.065002 0.053314 0.042297
0.065582 0.053741 0.043945
0.067810 0.055359 0.044342
0.070038 0.055786 0.044769
0.070587 0.056183 0.046387
0.073395 0.059967 0.048401
0.075623 0.060547 0.048828
0.078400 0.063324 0.050873
0.078400 0.063324 0.050873
0.078400 0.065002 0.050873
0.081177 0.067780 0.052887
0.081177 0.067780 0.052887
0.088409 0.071686 0.056946
0.087708 0.071136 0.055328
0.088409 0.073334 0.056946
0.092041 0.074463 0.059387
0.092041 0.074463 0.059387
0.092041 0.076141 0.059387
0.187469 0.183472 0.155518
0.174194 0.170227 0.145081
0.154266 0.151062 0.130310
0.139221 0.136292 0.115509
0.124451 0.121460 0.103638
0.107330 0.105133 0.092010
0.099304 0.094910 0.081787
0.087677 0.081146 0.071106
0.077820 0.072784 0.062744
0.066162 0.059448 0.051697
0.060577 0.054962 0.047638
0.055786 0.050903 0.043549
0.051727 0.046814 0.039856
0.051727 0.045593 0.039856
0.051300 0.045166 0.038635
0.049683 0.043579 0.038361
0.050079 0.045166 0.039551
0.050476 0.045593 0.040741
0.050903 0.047211 0.042328
0.051300 0.050079 0.043945
0.052124 0.052124 0.047211
0.056183 0.056183 0.051270
0.062195 0.063904 0.057404
0.067780 0.069458 0.062744
0.076141 0.077820 0.071106
0.088379 0.090576 0.080017
0.095673 0.097839 0.086884
0.106598 0.108795 0.097809
0.114563 0.117554 0.105103
0.124420 0.127411 0.112549
0.134308 0.137238 0.122406
0.143188 0.146118 0.128357
0.153015 0.156952 0.138214
0.242462 0.237152 0.202026
0.231812 0.221130 0.190063
0.214050 0.204742 0.176788
0.192841 0.184845 0.156891
0.178253 0.166229 0.142120
0.158295 0.148102 0.127319
0.137299 0.128418 0.108734
0.126434 0.114563 0.098541
0.107330 0.096375 0.081116
0.095703 0.084747 0.070526
0.084045 0.071655 0.059937
0.074493 0.062775 0.051666
0.073944 0.060547 0.050049
0.068390 0.055786 0.045990
0.068939 0.057404 0.047607
0.068939 0.057404 0.047607
0.069489 0.059418 0.049255
0.073395 0.065002 0.054535
0.076172 0.067780 0.056580
0.083313 0.076141 0.066071
0.090607 0.084045 0.071655
0.098602 0.094208 0.079437
0.106598 0.102234 0.089081
0.119476 0.116547 0.099976
0.135254 0.132324 0.114532
0.145111 0.142181 0.124359
0.162262 0.162262 0.139191
0.180878 0.176849 0.149994
0.195465 0.191437 0.167480
0.208710 0.208710 0.180756
0.226440 0.226440 0.194031
0.242462 0.237152 0.202026
0.251343 0.246033 0.208618
0.140228 0.137299 0.119476
0.135254 0.135254 0.114532
0.125427 0.125427 0.106567
0.125427 0.122437 0.106567
0.114594 0.109497 0.096344
0.106598 0.102234 0.089081
0.098602 0.094208 0.079437
0.090607 0.084045 0.071655
0.086212 0.078339 0.066620
0.081146 0.072784 0.059387
0.075043 0.065002 0.053314
0.076721 0.065002 0.052063
0.073395 0.059967 0.048401
0.073395 0.059967 0.048401
0.073395 0.059967 0.048401
0.076721 0.063324 0.052063
0.077271 0.065582 0.053741
0.080078 0.068329 0.055756
0.088409 0.078369 0.064972
0.089844 0.081146 0.069397
0.101501 0.092743 0.079987
0.109497 0.102936 0.089783
0.119476 0.116547 0.099976
0.135254 0.132324 0.114532
0.150085 0.147125 0.129333
0.168915 0.164948 0.144104
0.188812 0.184845 0.160858
0.202087 0.202087 0.174133
0.226440 0.226440 0.194031
0.244202 0.244202 0.207306
0.262054 0.262054 0.224548
0.270935 0.270935 0.233490
0.300140 0.292877 0.253021
0.024780 0.027344 0.027985
0.024567 0.027130 0.027130
0.025635 0.028198 0.028198
0.027557 0.029968 0.029968
0.028473 0.030273 0.030273
0.028473 0.030273 0.029358
0.031158 0.032074 0.031158
0.032074 0.032074 0.031158
0.032959 0.032074 0.030243
0.035675 0.034790 0.032074
0.036865 0.035065 0.032349
0.041138 0.038361 0.035645
0.040771 0.038055 0.034454
0.044403 0.039856 0.036255
0.046021 0.041107 0.036530
0.046021 0.041107 0.036530
0.049683 0.043579 0.038361
0.049683 0.043579 0.038361
0.051727 0.045593 0.039856
0.053772 0.048859 0.041504
0.053772 0.048859 0.041504
0.057404 0.051300 0.043945
0.055786 0.050903 0.043549
0.060577 0.053741 0.047638
0.062775 0.055359 0.048035
0.066162 0.059448 0.051697
0.068909 0.062195 0.053711
0.071136 0.064453 0.054108
0.071716 0.066681 0.055756
0.073914 0.067230 0.056152
0.076721 0.070007 0.058258
0.080078 0.075043 0.063293
0.082581 0.075562 0.063843
0.204865 0.144104 0.105042
0.210632 0.148071 0.105774
0.210632 0.148071 0.105774
0.210632 0.148071 0.105774
0.210632 0.148071 0.105774
0.210632 0.148071 0.105774
0.203552 0.143127 0.102142
0.204865 0.144104 0.105042
0.203552 0.143127 0.102142
0.204865 0.144104 0.105042
0.198212 0.142181 0.101379
0.198212 0.139191 0.101379
0.198212 0.139191 0.101379
0.192963 0.138214 0.100677
0.192963 0.138214 0.100677
0.192963 0.138214 0.100677
0.192963 0.138214 0.100677
0.192963 0.138214 0.100677
0.198212 0.139191 0.101379
0.198212 0.139191 0.101379
0.198212 0.142181 0.101379
0.191589 0.137238 0.097748
0.191589 0.134247 0.097748
0.187622 0.137238 0.099976
