Light/Corridor/Assets/PostProcessing-2/PostProcessing/Textures/LUTs/myLUTPS.cube
#Created by: Adobe Photoshop Export Color Lookup Plugin
TITLE "myLUT"
#LUT size
LUT_3D_SIZE 5
#data domain
DOMAIN_MIN 0.0 0.0 0.0
DOMAIN_MAX 1.0 1.0 1.0
#LUT data points
0.000000 0.000000 0.000000
0.036926 0.001068 0.001068
0.266418 0.009796 0.009796
1.000000 0.020599 0.020599
1.000000 0.036560 0.036560
0.464081 0.587769 0.741089
0.480133 0.609467 0.769989
0.483276 0.613678 0.792969
0.056549 0.069427 0.085480
0.045654 0.033569 0.023682
0.206207 0.151062 0.107941
0.212372 0.152008 0.108673
0.192963 0.138214 0.100677
0.174286 0.127350 0.092651
0.089874 0.069427 0.054108
0.140228 0.137299 0.119476
0.086212 0.078339 0.066620
0.077271 0.065582 0.053741
0.150085 0.147125 0.129333
0.300140 0.292877 0.253021
0.302216 0.359894 0.448425
0.167542 0.155579 0.159546
0.143219 0.113586 0.093414
0.138306 0.109467 0.089783
0.124481 0.099274 0.081757
0.001068 0.001068 0.036926
0.036926 0.001068 0.036926
0.266418 0.009796 0.062622
1.000000 0.020599 0.103088
1.000000 0.036560 0.165863
0.467224 0.592010 0.764069
0.480133 0.609467 0.769989
0.480133 0.609467 0.769989
0.054535 0.066681 0.081848
0.041962 0.029938 0.022400
0.206207 0.148071 0.107941
0.221344 0.158203 0.112457
0.212372 0.149017 0.108673
0.167725 0.122467 0.089050
0.089874 0.069427 0.054108
0.121460 0.121460 0.105835
0.084778 0.075592 0.062195
0.079529 0.066132 0.054138
0.150085 0.147125 0.129333
0.300140 0.292877 0.253021
0.164886 0.149994 0.147064
0.134338 0.108765 0.089050
0.138306 0.109467 0.089783
0.137299 0.106567 0.086823
0.137299 0.106567 0.086823
0.009796 0.009796 0.266418
0.062622 0.009796 0.266418
0.266418 0.009796 0.266418
1.000000 0.020599 0.422638
1.000000 0.036560 0.663239
0.451172 0.570679 0.735168
0.480133 0.609467 0.769989
0.480133 0.609467 0.769989
0.054138 0.064453 0.079529
0.038086 0.028198 0.021759
0.187622 0.137238 0.099976
0.204865 0.147095 0.105042
0.204865 0.144104 0.105042
0.169006 0.123444 0.091949
0.086945 0.068878 0.053680
0.059418 0.061096 0.055328
0.064453 0.055359 0.046783
0.073944 0.062225 0.050049
0.130341 0.127411 0.110199
0.270935 0.270935 0.233490
0.134338 0.106567 0.089050
0.134338 0.106567 0.089050
0.133362 0.105835 0.086121
0.132355 0.105133 0.083221
0.136322 0.105835 0.083954
0.020599 0.020599 1.000000
0.103088 0.020599 1.000000
0.422638 0.020599 1.000000
1.000000 0.020599 1.000000
1.000000 0.036560 1.000000
0.451172 0.570679 0.735168
0.480133 0.596405 0.769989
0.464081 0.587769 0.741089
0.049652 0.057007 0.071716
0.032684 0.024994 0.019226
0.214203 0.152985 0.111603
0.199585 0.143127 0.104309
0.199585 0.143127 0.104309
0.174286 0.124420 0.092651
0.093506 0.073914 0.056152
0.031769 0.034454 0.034454
0.044800 0.041107 0.037445
0.061676 0.053314 0.044769
0.096405 0.094238 0.081146
0.175537 0.175537 0.149017
0.125458 0.102203 0.084656
0.133362 0.105835 0.086121
0.133362 0.105835 0.086121
0.136322 0.105835 0.083954
0.127441 0.101471 0.079987
0.036560 0.036560 1.000000
0.165863 0.036560 1.000000
0.663239 0.036560 1.000000
1.000000 0.036560 1.000000
1.000000 0.036560 1.000000
0.451172 0.570679 0.735168
0.467224 0.592010 0.764069
0.359802 0.458008 0.579651
0.015808 0.015289 0.015289
0.029083 0.023071 0.018707
0.206207 0.148071 0.107941
0.212372 0.152008 0.108673
0.212372 0.149017 0.108673
0.198212 0.139191 0.101379
0.118591 0.090576 0.068268
0.024780 0.027344 0.027985
0.034454 0.033569 0.031769
0.048065 0.043152 0.038055
0.063904 0.057404 0.051270
0.087677 0.083282 0.071106
0.036560 1.000000 1.000000
0.264160 1.000000 1.000000
1.000000 1.000000 1.000000
1.000000 1.000000 1.000000
1.000000 1.000000 1.000000
