Light/Corridor/Assets/PostProcessing-2/PostProcessing/Textures/LUTs/myLUTPS.cube.cube
#Created by: Adobe Photoshop Export Color Lookup Plugin
TITLE "myLUTPS"
#LUT size
LUT_3D_SIZE 9
#data domain
DOMAIN_MIN 0.0 0.0 0.0
DOMAIN_MAX 1.0 1.0 1.0
#LUT data points
0.000000 0.000000 0.000000
0.009899 0.000000 0.000000
0.036942 0.001080 0.001080
0.103582 0.005161 0.005161
0.266439 0.009806 0.009806
0.665957 0.014912 0.014912
1.000000 0.020608 0.020608
1.000000 0.027409 0.027409
1.000000 0.036568 0.036568
0.000000 0.009899 0.000000
0.009899 0.009899 0.000000
0.036942 0.015019 0.001080
0.103582 0.020742 0.005161
0.266439 0.027543 0.009806
0.665957 0.036755 0.014912
1.000000 0.048199 0.020608
1.000000 0.062285 0.027409
1.000000 0.079968 0.036568
0.001080 0.036942 0.001080
0.015019 0.036942 0.001080
0.036942 0.036942 0.001080
0.103582 0.048453 0.005161
0.266439 0.062632 0.009806
0.665957 0.080314 0.014912
1.000000 0.103129 0.020608
1.000000 0.131330 0.027409
1.000000 0.165893 0.036568
0.005161 0.103582 0.005161
0.020742 0.103582 0.005161
0.048453 0.103582 0.005161
0.103582 0.103582 0.005161
0.266439 0.131944 0.009806
0.665957 0.166720 0.014912
1.000000 0.208885 0.020608
1.000000 0.265333 0.027409
1.000000 0.335173 0.036568
0.009806 0.266439 0.009806
0.027543 0.266439 0.009806
0.062632 0.266439 0.009806
0.131943 0.266439 0.009806
0.266439 0.266439 0.009806
0.665957 0.336666 0.014912
1.000000 0.422597 0.020608
1.000000 0.526579 0.027409
1.000000 0.663277 0.036568
0.014912 0.665957 0.014912
0.036755 0.665957 0.014912
0.080314 0.665957 0.014912
0.166720 0.665957 0.014912
0.336666 0.665957 0.014912
0.665957 0.665957 0.014912
1.000000 0.838104 0.020608
1.000000 1.000000 0.027409
1.000000 1.000000 0.036568
0.020608 1.000000 0.020608
0.048199 1.000000 0.020608
0.103128 1.000000 0.020608
0.208885 1.000000 0.020608
0.422597 1.000000 0.020608
0.838104 1.000000 0.020608
1.000000 1.000000 0.020608
1.000000 1.000000 0.027409
1.000000 1.000000 0.036568
0.027409 1.000000 0.027409
0.062285 1.000000 0.027409
0.131330 1.000000 0.027409
0.265333 1.000000 0.027409
0.526579 1.000000 0.027409
1.000000 1.000000 0.027409
1.000000 1.000000 0.027409
1.000000 1.000000 0.027409
1.000000 1.000000 0.036568
0.036568 1.000000 0.036568
0.079968 1.000000 0.036568
0.165893 1.000000 0.036568
0.335173 1.000000 0.036568
0.663277 1.000000 0.036568
1.000000 1.000000 0.036568
1.000000 1.000000 0.036568
1.000000 1.000000 0.036568
1.000000 1.000000 0.036568
0.000000 0.000000 0.009899
0.009899 0.000000 0.009899
0.036942 0.001080 0.015019
0.103582 0.005161 0.020742
0.266439 0.009806 0.027543
0.665957 0.014912 0.036755
1.000000 0.020608 0.048199
1.000000 0.027409 0.062285
1.000000 0.036568 0.079968
0.000000 0.009899 0.009899
0.015019 0.015019 0.015019
0.048453 0.020742 0.020742
0.131943 0.027543 0.027543
0.336666 0.036755 0.036755
0.838104 0.048199 0.048199
1.000000 0.062285 0.062285
1.000000 0.079968 0.079968
1.000000 0.102675 0.102675
0.001080 0.036942 0.015019
0.020742 0.048453 0.020742
0.048453 0.048453 0.020742
0.131943 0.062632 0.027543
0.336666 0.080314 0.036755
0.838104 0.103129 0.048199
1.000000 0.131330 0.062285
1.000000 0.165893 0.079968
1.000000 0.208059 0.102675
0.005161 0.103582 0.020742
0.027543 0.131943 0.027543
0.062632 0.131943 0.027543
0.131943 0.131943 0.027543
0.336666 0.166720 0.036755
0.838104 0.208885 0.048199
1.000000 0.265333 0.062285
1.000000 0.335173 0.079968
1.000000 0.420597 0.102675
0.009806 0.266439 0.027543
0.036755 0.336666 0.036755
0.080314 0.336666 0.036755
0.166720 0.336666 0.036755
0.336666 0.336666 0.036755
0.838104 0.422597 0.048199
1.000000 0.526579 0.062285
1.000000 0.663277 0.079968
1.000000 0.834503 0.102675
0.014912 0.665957 0.036755
0.048199 0.838104 0.048199
0.103128 0.838104 0.048199
0.208885 0.838104 0.048199
0.422597 0.838104 0.048199
0.838104 0.838104 0.048199
1.000000 1.000000 0.062285
1.000000 1.000000 0.079968
1.000000 1.000000 0.102675
0.020608 1.000000 0.048199
0.062285 1.000000 0.062285
0.131330 1.000000 0.062285
0.265332 1.000000 0.062285
0.526579 1.000000 0.062285
1.000000 1.000000 0.062285
1.000000 1.000000 0.062285
1.000000 1.000000 0.079968
1.000000 1.000000 0.102675
0.027409 1.000000 0.062285
0.079968 1.000000 0.079968
0.165893 1.000000 0.079968
0.335172 1.000000 0.079968
0.663277 1.000000 0.079968
1.000000 1.000000 0.079968
1.000000 1.000000 0.079968
1.000000 1.000000 0.079968
1.000000 1.000000 0.102675
0.036568 1.000000 0.079968
0.102675 1.000000 0.102675
0.208059 1.000000 0.102675
0.420597 1.000000 0.102675
0.834503 1.000000 0.102675
1.000000 1.000000 0.102675
1.000000 1.000000 0.102675
1.000000 1.000000 0.102675
1.000000 1.000000 0.102675
0.001080 0.001080 0.036942
0.015019 0.001080 0.036942
0.036942 0.001080 0.036942
0.103582 0.005161 0.048453
0.266439 0.009806 0.062632
0.665957 0.014912 0.080314
1.000000 0.020608 0.103129
1.000000 0.027409 0.131330
1.000000 0.036568 0.165893
0.001080 0.015019 0.036942
0.020742 0.020742 0.048453
0.048453 0.020742 0.048453
0.131943 0.027543 0.062632
0.336666 0.036755 0.080314
0.838104 0.048199 0.103128
1.000000 0.062285 0.131330
1.000000 0.079968 0.165893
1.000000 0.102675 0.208059
0.001080 0.036942 0.036942
0.020742 0.048453 0.048453
0.062632 0.062632 0.062632
0.166720 0.080314 0.080314
0.422597 0.103129 0.103129
1.000000 0.131330 0.131330
1.000000 0.165893 0.165893
1.000000 0.208059 0.208059
1.000000 0.264226 0.264226
0.005161 0.103582 0.048453
0.027543 0.131943 0.062632
0.080314 0.166720 0.080314
0.166720 0.166720 0.080314
0.422597 0.208885 0.103129
1.000000 0.265333 0.131330
1.000000 0.335173 0.165893
1.000000 0.420597 0.208059
1.000000 0.523899 0.264226
0.009806 0.266439 0.062632
0.036755 0.336666 0.080314
0.103129 0.422597 0.103129
0.208885 0.422597 0.103129
0.422597 0.422597 0.103129
1.000000 0.526579 0.131330
1.000000 0.663277 0.165893
1.000000 0.834503 0.208059
1.000000 1.000000 0.264226
0.014912 0.665957 0.080314
0.048199 0.838104 0.103128
0.131330 1.000000 0.131330
0.265333 1.000000 0.131330
0.526579 1.000000 0.131330
1.000000 1.000000 0.131330
1.000000 1.000000 0.165893
1.000000 1.000000 0.208059
1.000000 1.000000 0.264226
0.020608 1.000000 0.103129
0.062285 1.000000 0.131330
0.165893 1.000000 0.165893
0.335172 1.000000 0.165893
0.663277 1.000000 0.165893
1.000000 1.000000 0.165893
1.000000 1.000000 0.165893
1.000000 1.000000 0.208059
1.000000 1.000000 0.264226
0.027409 1.000000 0.131330
0.079968 1.000000 0.165893
0.208059 1.000000 0.208059
0.420597 1.000000 0.208059
0.834503 1.000000 0.208059
1.000000 1.000000 0.208059
1.000000 1.000000 0.208059
1.000000 1.000000 0.208059
1.000000 1.000000 0.264226
0.036568 1.000000 0.165893
0.102675 1.000000 0.208059
0.264226 1.000000 0.264226
0.523899 1.000000 0.264226
1.000000 1.000000 0.264226
1.000000 1.000000 0.264226
1.000000 1.000000 0.264226
1.000000 1.000000 0.264226
1.000000 1.000000 0.264226
0.005161 0.005161 0.103582
0.020742 0.005161 0.103582
0.048453 0.005161 0.103582
0.103582 0.005161 0.103582
0.266439 0.009806 0.131943
0.665957 0.014912 0.166720
1.000000 0.020608 0.208885
1.000000 0.027409 0.265332
1.000000 0.036568 0.335173
0.005161 0.020742 0.103582
0.027543 0.027543 0.131943
0.062632 0.027543 0.131943
0.131943 0.027543 0.131943
0.336666 0.036755 0.166720
0.838104 0.048199 0.208885
1.000000 0.062285 0.265333
1.000000 0.079968 0.335173
1.000000 0.102675 0.420596
0.005161 0.048453 0.103582
0.027543 0.062632 0.131943
0.080314 0.080314 0.166720
0.166720 0.080314 0.166720
0.422597 0.103129 0.208885
1.000000 0.131330 0.265333
1.000000 0.165893 0.335172
1.000000 0.208059 0.420597
1.000000 0.264226 0.523899
0.005161 0.103582 0.103582
0.027543 0.131943 0.131943
0.080314 0.166720 0.166720
0.208885 0.208885 0.208885
0.526579 0.265333 0.265333
1.000000 0.335173 0.335173
1.000000 0.420597 0.420597
1.000000 0.523899 0.523899
1.000000 0.660596 0.660596
0.009806 0.266439 0.131944
0.036755 0.336666 0.166720
0.103129 0.422597 0.208885
0.265333 0.526579 0.265333
0.526579 0.526579 0.265333
1.000000 0.663277 0.335173
1.000000 0.834503 0.420597
1.000000 1.000000 0.523899
1.000000 1.000000 0.660596
0.014912 0.665957 0.166720
0.048199 0.838104 0.208885
0.131330 1.000000 0.265333
0.335173 1.000000 0.335173
0.663277 1.000000 0.335173
1.000000 1.000000 0.335173
1.000000 1.000000 0.420597
1.000000 1.000000 0.523899
1.000000 1.000000 0.660596
0.020608 1.000000 0.208885
0.062285 1.000000 0.265333
0.165893 1.000000 0.335172
0.420597 1.000000 0.420597
0.834503 1.000000 0.420597
1.000000 1.000000 0.420597
1.000000 1.000000 0.420597
1.000000 1.000000 0.523899
1.000000 1.000000 0.660596
0.027409 1.000000 0.265333
0.079968 1.000000 0.335173
0.208059 1.000000 0.420597
0.523899 1.000000 0.523899
1.000000 1.000000 0.523899
1.000000 1.000000 0.523899
1.000000 1.000000 0.523899
1.000000 1.000000 0.523899
1.000000 1.000000 0.660596
0.036568 1.000000 0.335173
0.102675 1.000000 0.420597
0.264226 1.000000 0.523899
0.660596 1.000000 0.660596
1.000000 1.000000 0.660596
1.000000 1.000000 0.660596
1.000000 1.000000 0.660596
1.000000 1.000000 0.660596
1.000000 1.000000 0.660596
0.009806 0.009806 0.266439
0.027543 0.009806 0.266439
0.062632 0.009806 0.266439
0.131943 0.009806 0.266439
0.266439 0.009806 0.266439
0.665957 0.014912 0.336666
1.000000 0.020608 0.422597
1.000000 0.027409 0.526578
1.000000 0.036568 0.663276
0.009806 0.027543 0.266439
0.036755 0.036755 0.336666
0.080314 0.036755 0.336666
0.166720 0.036755 0.336666
0.336666 0.036755 0.336666
0.838104 0.048199 0.422597
1.000000 0.062285 0.526579
1.000000 0.079968 0.663276
1.000000 0.102675 0.834503
0.009806 0.062632 0.266439
0.036755 0.080314 0.336666
0.103129 0.103129 0.422597
0.208885 0.103129 0.422597
0.422597 0.103129 0.422597
1.000000 0.131330 0.526578
1.000000 0.165893 0.663277
1.000000 0.208059 0.834503
1.000000 0.264226 1.000000
0.009806 0.131943 0.266439
0.036755 0.166720 0.336666
0.103129 0.208885 0.422597
0.265333 0.265333 0.526579
0.526579 0.265333 0.526579
1.000000 0.335173 0.663277
1.000000 0.420597 0.834502
1.000000 0.523899 1.000000
1.000000 0.660596 1.000000
0.009806 0.266440 0.266439
0.036755 0.336666 0.336666
0.103129 0.422597 0.422597
0.265333 0.526579 0.526579
0.663277 0.663277 0.663277
1.000000 0.834503 0.834503
1.000000 1.000000 1.000000
1.000000 1.000000 1.000000
1.000000 1.000000 1.000000
0.014912 0.665957 0.336666
0.048199 0.838104 0.422597
0.131330 1.000000 0.526579
0.335173 1.000000 0.663277
0.834503 1.000000 0.834503
1.000000 1.000000 0.834503
1.000000 1.000000 1.000000
1.000000 1.000000 1.000000
1.000000 1.000000 1.000000
0.020608 1.000000 0.422598
0.062285 1.000000 0.526579
0.165893 1.000000 0.663277
0.420597 1.000000 0.834504
1.000000 1.000000 1.000000
1.000000 1.000000 1.000000
1.000000 1.000000 1.000000
1.000000 1.000000 1.000000
1.000000 1.000000 1.000000
0.027409 1.000000 0.526579
0.079968 1.000000 0.663277
0.208059 1.000000 0.834504
0.523899 1.000000 1.000000
1.000000 1.000000 1.000000
1.000000 1.000000 1.000000
1.000000 1.000000 1.000000
1.000000 1.000000 1.000000
1.000000 1.000000 1.000000
0.036568 1.000000 0.663277
0.102675 1.000000 0.834503
0.264226 1.000000 1.000000
0.660596 1.000000 1.000000
1.000000 1.000000 1.000000
1.000000 1.000000 1.000000
1.000000 1.000000 1.000000
1.000000 1.000000 1.000000
1.000000 1.000000 1.000000
0.014912 0.014912 0.665957
0.036755 0.014912 0.665957
0.080314 0.014912 0.665957
0.166720 0.014912 0.665957
0.336666 0.014912 0.665957
0.665957 0.014912 0.665957
1.000000 0.020608 0.838104
1.000000 0.027409 1.000000
1.000000 0.036568 1.000000
0.014912 0.036755 0.665957
0.048199 0.048199 0.838104
0.103129 0.048199 0.838104
0.208885 0.048199 0.838104
0.422597 0.048199 0.838104
0.838104 0.048199 0.838103
1.000000 0.062285 1.000000
1.000000 0.079968 1.000000
1.000000 0.102675 1.000000
0.014912 0.080314 0.665957
0.048199 0.103129 0.838104
0.131330 0.131330 1.000000
0.265333 0.131330 1.000000
0.526579 0.131330 1.000000
1.000000 0.131330 1.000000
1.000000 0.165893 1.000000
1.000000 0.208059 1.000000
1.000000 0.264226 1.000000
0.014912 0.166720 0.665957
0.048199 0.208885 0.838104
0.131330 0.265333 1.000000
0.335173 0.335173 1.000000
0.663277 0.335173 1.000000
1.000000 0.335173 1.000000
1.000000 0.420597 1.000000
1.000000 0.523899 1.000000
1.000000 0.660596 1.000000
0.014912 0.336666 0.665957
0.048199 0.422597 0.838104
0.131330 0.526579 1.000000
0.335173 0.663277 1.000000
0.834503 0.834503 1.000000
1.000000 0.834503 1.000000
1.000000 1.000000 1.000000
1.000000 1.000000 1.000000
1.000000 1.000000 1.000000
0.014912 0.665958 0.665957
0.048199 0.838104 0.838104
0.131330 1.000000 1.000000
0.335173 1.000000 1.000000
0.834503 1.000000 1.000000
1.000000 1.000000 1.000000
1.000000 1.000000 1.000000
1.000000 1.000000 1.000000
1.000000 1.000000 1.000000
0.020608 1.000000 0.838104
0.062285 1.000000 1.000000
0.165893 1.000000 1.000000
0.420597 1.000000 1.000000
1.000000 1.000000 1.000000
1.000000 1.000000 1.000000
1.000000 1.000000 1.000000
1.000000 1.000000 1.000000
1.000000 1.000000 1.000000
0.027409 1.000000 1.000000
0.079968 1.000000 1.000000
0.208059 1.000000 1.000000
0.523899 1.000000 1.000000
1.000000 1.000000 1.000000
1.000000 1.000000 1.000000
1.000000 1.000000 1.000000
1.000000 1.000000 1.000000
1.000000 1.000000 1.000000
0.036568 1.000000 1.000000
0.102675 1.000000 1.000000
0.264226 1.000000 1.000000
0.660596 1.000000 1.000000
1.000000 1.000000 1.000000
1.000000 1.000000 1.000000
1.000000 1.000000 1.000000
1.000000 1.000000 1.000000
1.000000 1.000000 1.000000
0.020608 0.020608 1.000000
0.048199 0.020608 1.000000
0.103129 0.020608 1.000000
0.208885 0.020608 1.000000
0.422598 0.020608 1.000000
0.838104 0.020608 1.000000
1.000000 0.020608 1.000000
1.000000 0.027409 1.000000
1.000000 0.036568 1.000000
0.020608 0.048199 1.000000
0.062285 0.062285 1.000000
0.131330 0.062285 1.000000
0.265333 0.062285 1.000000
0.526580 0.062285 1.000000
1.000000 0.062285 1.000000
1.000000 0.062285 1.000000
1.000000 0.079968 1.000000
1.000000 0.102675 1.000000
0.020608 0.103129 1.000000
0.062285 0.131330 1.000000
0.165893 0.165893 1.000000
0.335173 0.165893 1.000000
0.663277 0.165893 1.000000
1.000000 0.165893 1.000000
1.000000 0.165893 1.000000
1.000000 0.208059 1.000000
1.000000 0.264226 1.000000
0.020608 0.208885 1.000000
0.062285 0.265333 1.000000
0.165893 0.335173 1.000000
0.420597 0.420597 1.000000
0.834503 0.420597 1.000000
1.000000 0.420597 1.000000
1.000000 0.420597 1.000000
1.000000 0.523899 1.000000
1.000000 0.660596 1.000000
0.020608 0.422597 1.000000
0.062285 0.526578 1.000000
0.165893 0.663277 1.000000
0.420597 0.834503 1.000000
1.000000 1.000000 1.000000
1.000000 1.000000 1.000000
1.000000 1.000000 1.000000
1.000000 1.000000 1.000000
1.000000 1.000000 1.000000
0.020608 0.838104 1.000000
0.062285 1.000000 1.000000
0.165893 1.000000 1.000000
0.420597 1.000000 1.000000
1.000000 1.000000 1.000000
1.000000 1.000000 1.000000
1.000000 1.000000 1.000000
1.000000 1.000000 1.000000
1.000000 1.000000 1.000000
0.020608 1.000000 1.000000
0.062285 1.000000 1.000000
0.165893 1.000000 1.000000
0.420597 1.000000 1.000000
1.000000 1.000000 1.000000
1.000000 1.000000 1.000000
1.000000 1.000000 1.000000
1.000000 1.000000 1.000000
1.000000 1.000000 1.000000
0.027409 1.000000 1.000000
0.079968 1.000000 1.000000
0.208059 1.000000 1.000000
0.523899 1.000000 1.000000
1.000000 1.000000 1.000000
1.000000 1.000000 1.000000
1.000000 1.000000 1.000000
1.000000 1.000000 1.000000
1.000000 1.000000 1.000000
0.036568 1.000000 1.000000
0.102675 1.000000 1.000000
0.264226 1.000000 1.000000
0.660596 1.000000 1.000000
1.000000 1.000000 1.000000
1.000000 1.000000 1.000000
1.000000 1.000000 1.000000
1.000000 1.000000 1.000000
1.000000 1.000000 1.000000
0.027409 0.027409 1.000000
0.062285 0.027409 1.000000
0.131330 0.027409 1.000000
0.265333 0.027409 1.000000
0.526580 0.027409 1.000000
1.000000 0.027409 1.000000
1.000000 0.027409 1.000000
1.000000 0.027409 1.000000
1.000000 0.036568 1.000000
0.027409 0.062285 1.000000
0.079968 0.079968 1.000000
0.165893 0.079968 1.000000
0.335173 0.079968 1.000000
0.663276 0.079968 1.000000
1.000000 0.079968 1.000000
1.000000 0.079968 1.000000
1.000000 0.079968 1.000000
1.000000 0.102675 1.000000
0.027409 0.131330 1.000000
0.079968 0.165893 1.000000
0.208059 0.208059 1.000000
0.420597 0.208059 1.000000
0.834503 0.208059 1.000000
1.000000 0.208059 1.000000
1.000000 0.208059 1.000000
1.000000 0.208059 1.000000
1.000000 0.264226 1.000000
0.027409 0.265333 1.000000
0.079968 0.335173 1.000000
0.208059 0.420597 1.000000
0.523899 0.523899 1.000000
1.000000 0.523899 1.000000
1.000000 0.523899 1.000000
1.000000 0.523899 1.000000
1.000000 0.523899 1.000000
1.000000 0.660596 1.000000
0.027409 0.526578 1.000000
0.079968 0.663276 1.000000
0.208059 0.834503 1.000000
0.523899 1.000000 1.000000
1.000000 1.000000 1.000000
1.000000 1.000000 1.000000
1.000000 1.000000 1.000000
1.000000 1.000000 1.000000
1.000000 1.000000 1.000000
0.027409 1.000000 1.000000
0.079968 1.000000 1.000000
0.208059 1.000000 1.000000
0.523899 1.000000 1.000000
1.000000 1.000000 1.000000
1.000000 1.000000 1.000000
1.000000 1.000000 1.000000
1.000000 1.000000 1.000000
1.000000 1.000000 1.000000
0.027409 1.000000 1.000000
0.079968 1.000000 1.000000
0.208059 1.000000 1.000000
0.523899 1.000000 1.000000
1.000000 1.000000 1.000000
1.000000 1.000000 1.000000
1.000000 1.000000 1.000000
1.000000 1.000000 1.000000
1.000000 1.000000 1.000000
0.027409 1.000000 1.000000
0.079968 1.000000 1.000000
0.208059 1.000000 1.000000
0.523899 1.000000 1.000000
1.000000 1.000000 1.000000
1.000000 1.000000 1.000000
1.000000 1.000000 1.000000
1.000000 1.000000 1.000000
1.000000 1.000000 1.000000
0.036568 1.000000 1.000000
0.102675 1.000000 1.000000
0.264226 1.000000 1.000000
0.660596 1.000000 1.000000
1.000000 1.000000 1.000000
1.000000 1.000000 1.000000
1.000000 1.000000 1.000000
1.000000 1.000000 1.000000
1.000000 1.000000 1.000000
0.036568 0.036568 1.000000
0.079968 0.036568 1.000000
0.165893 0.036568 1.000000
0.335173 0.036568 1.000000
0.663276 0.036568 1.000000
1.000000 0.036568 1.000000
1.000000 0.036568 1.000000
1.000000 0.036568 1.000000
1.000000 0.036568 1.000000
0.036568 0.079968 1.000000
0.102675 0.102675 1.000000
0.208059 0.102675 1.000000
0.420597 0.102675 1.000000
0.834504 0.102675 1.000000
1.000000 0.102675 1.000000
1.000000 0.102675 1.000000
1.000000 0.102675 1.000000
1.000000 0.102675 1.000000
0.036568 0.165893 1.000000
0.102675 0.208058 1.000000
0.264226 0.264226 1.000000
0.523900 0.264226 1.000000
1.000000 0.264226 1.000000
1.000000 0.264226 1.000000
1.000000 0.264226 1.000000
1.000000 0.264226 1.000000
1.000000 0.264226 1.000000
0.036568 0.335173 1.000000
0.102675 0.420597 1.000000
0.264226 0.523898 1.000000
0.660596 0.660596 1.000000
1.000000 0.660596 1.000000
1.000000 0.660596 1.000000
1.000000 0.660596 1.000000
1.000000 0.660596 1.000000
1.000000 0.660596 1.000000
0.036568 0.663276 1.000000
0.102675 0.834504 1.000000
0.264226 1.000000 1.000000
0.660596 1.000000 1.000000
1.000000 1.000000 1.000000
1.000000 1.000000 1.000000
1.000000 1.000000 1.000000
1.000000 1.000000 1.000000
1.000000 1.000000 1.000000
0.036568 1.000000 1.000000
0.102675 1.000000 1.000000
0.264226 1.000000 1.000000
0.660596 1.000000 1.000000
1.000000 1.000000 1.000000
1.000000 1.000000 1.000000
1.000000 1.000000 1.000000
1.000000 1.000000 1.000000
1.000000 1.000000 1.000000
0.036568 1.000000 1.000000
0.102675 1.000000 1.000000
0.264226 1.000000 1.000000
0.660596 1.000000 1.000000
1.000000 1.000000 1.000000
1.000000 1.000000 1.000000
1.000000 1.000000 1.000000
1.000000 1.000000 1.000000
1.000000 1.000000 1.000000
0.036568 1.000000 1.000000
0.102675 1.000000 1.000000
0.264226 1.000000 1.000000
0.660596 1.000000 1.000000
1.000000 1.000000 1.000000
1.000000 1.000000 1.000000
1.000000 1.000000 1.000000
1.000000 1.000000 1.000000
1.000000 1.000000 1.000000
0.036568 1.000000 1.000000
0.102675 1.000000 1.000000
0.264226 1.000000 1.000000
0.660596 1.000000 1.000000
1.000000 1.000000 1.000000
1.000000 1.000000 1.000000
1.000000 1.000000 1.000000
1.000000 1.000000 1.000000
1.000000 1.000000 1.000000
