Light/Corridor/Assets/PostProcessing-2/PostProcessing/Textures/LUTs/myLUTPS.cube.cube
#Created by: Adobe Photoshop Export Color Lookup Plugin
TITLE "myLUTPS"
#LUT size
LUT_3D_SIZE 33
#data domain
DOMAIN_MIN 0.0 0.0 0.0
DOMAIN_MAX 1.0 1.0 1.0
#LUT data points
0.000000 0.000000 0.000000
0.000000 0.000000 0.000000
0.001120 0.000000 0.000000
0.005221 0.000000 0.000000
0.009899 0.000000 0.000000
0.015046 0.000000 0.000000
0.020808 0.000000 0.000000
0.027643 0.000000 0.000000
0.036942 0.001080 0.001080
0.048516 0.002100 0.002100
0.062805 0.003120 0.003120
0.080574 0.004141 0.004141
0.103582 0.005161 0.005161
0.132097 0.006235 0.006235
0.167133 0.007425 0.007425
0.209715 0.008615 0.008615
0.266439 0.009806 0.009806
0.337040 0.010996 0.010996
0.423597 0.012192 0.012192
0.528589 0.013552 0.013552
0.665957 0.014912 0.014912
0.839003 0.016272 0.016272
1.000000 0.017633 0.017633
1.000000 0.018993 0.018993
1.000000 0.020608 0.020608
1.000000 0.022309 0.022309
1.000000 0.024009 0.024009
1.000000 0.025709 0.025709
1.000000 0.027409 0.027409
1.000000 0.029427 0.029427
1.000000 0.031808 0.031808
1.000000 0.034188 0.034188
1.000000 0.036568 0.036568
0.000000 0.000000 0.000000
0.000000 0.000000 0.000000
0.001120 0.000000 0.000000
0.005221 0.000000 0.000000
0.009899 0.000016 0.000000
0.015046 0.001100 0.000000
0.020808 0.002120 0.000000
0.027643 0.003140 0.000000
0.036942 0.004161 0.001080
0.048516 0.005181 0.002100
0.062805 0.006258 0.003120
0.080574 0.007449 0.004141
0.103582 0.008639 0.005161
0.132097 0.009829 0.006235
0.167133 0.011019 0.007425
0.209715 0.012219 0.008615
0.266439 0.013579 0.009806
0.337040 0.014939 0.010996
0.423597 0.016299 0.012192
0.528589 0.017659 0.013552
0.665957 0.019019 0.014912
0.839003 0.020642 0.016272
1.000000 0.022342 0.017633
1.000000 0.024042 0.018993
1.000000 0.025742 0.020608
1.000000 0.027443 0.022309
1.000000 0.029474 0.024009
1.000000 0.031854 0.025709
1.000000 0.034235 0.027409
1.000000 0.036615 0.029427
1.000000 0.038995 0.031808
1.000000 0.041548 0.034188
1.000000 0.044779 0.036568
0.000000 0.001120 0.000000
0.000000 0.001120 0.000000
0.001120 0.001120 0.000000
0.005221 0.002140 0.000000
0.009899 0.003160 0.000000
0.015046 0.004181 0.000000
0.020808 0.005201 0.000000
0.027643 0.006282 0.000000
0.036942 0.007472 0.001080
0.048516 0.008662 0.002100
0.062805 0.009852 0.003120
0.080574 0.011042 0.004141
0.103582 0.012245 0.005161
0.132097 0.013605 0.006235
0.167133 0.014966 0.007425
0.209716 0.016326 0.008615
0.266439 0.017686 0.009806
0.337040 0.019046 0.010996
0.423597 0.020675 0.012192
0.528589 0.022375 0.013552
0.665957 0.024075 0.014912
0.839003 0.025776 0.016272
1.000000 0.027476 0.017633
1.000000 0.029521 0.018993
1.000000 0.031901 0.020608
1.000000 0.034281 0.022309
1.000000 0.036662 0.024009
1.000000 0.039042 0.025709
1.000000 0.041612 0.027409
1.000000 0.044842 0.029427
1.000000 0.048073 0.031808
1.000000 0.051303 0.034188
1.000000 0.054533 0.036568
0.000000 0.005221 0.000000
0.000000 0.005221 0.000000
0.002140 0.005221 0.000000
0.005221 0.005221 0.000000
0.009899 0.006305 0.000000
0.015046 0.007495 0.000000
0.020808 0.008685 0.000000
0.027643 0.009876 0.000000
0.036942 0.011066 0.001080
0.048516 0.012272 0.002100
0.062805 0.013632 0.003120
0.080574 0.014992 0.004141
0.103582 0.016352 0.005161
0.132097 0.017713 0.006235
0.167133 0.019073 0.007425
0.209715 0.020708 0.008615
0.266439 0.022409 0.009806
0.337040 0.024109 0.010996
0.423597 0.025809 0.012192
0.528589 0.027509 0.013552
0.665957 0.029567 0.014912
0.839003 0.031948 0.016272
1.000000 0.034328 0.017633
1.000000 0.036708 0.018993
1.000000 0.039089 0.020608
1.000000 0.041675 0.022309
1.000000 0.044906 0.024009
1.000000 0.048136 0.025709
1.000000 0.051366 0.027409
1.000000 0.054597 0.029427
1.000000 0.057827 0.031808
1.000000 0.062199 0.034188
1.000000 0.066619 0.036568
0.000000 0.009899 0.000000
0.000016 0.009899 0.000000
0.003160 0.009899 0.000000
0.006305 0.009899 0.000000
0.009899 0.009899 0.000000
0.015046 0.011089 0.000000
0.020808 0.012299 0.000000
0.027643 0.013659 0.000000
0.036942 0.015019 0.001080
0.048516 0.016379 0.002100
0.062805 0.017739 0.003120
0.080574 0.019099 0.004141
0.103582 0.020742 0.005161
0.132097 0.022442 0.006235
0.167133 0.024142 0.007425
0.209715 0.025842 0.008615
0.266439 0.027543 0.009806
0.337040 0.029614 0.010996
0.423597 0.031994 0.012192
0.528589 0.034375 0.013552
0.665957 0.036755 0.014912
0.839003 0.039135 0.016272
1.000000 0.041738 0.017633
1.000000 0.044969 0.018993
1.000000 0.048199 0.020608
1.000000 0.051430 0.022309
1.000000 0.054660 0.024009
1.000000 0.057891 0.025709
1.000000 0.062285 0.027409
1.000000 0.066706 0.029427
1.000000 0.071127 0.031808
1.000000 0.075547 0.034188
1.000000 0.079968 0.036568
0.000000 0.015046 0.000000
0.001100 0.015046 0.000000
0.004181 0.015046 0.000000
0.007495 0.015046 0.000000
0.011089 0.015046 0.000000
0.015046 0.015046 0.000000
0.020808 0.016406 0.000000
0.027643 0.017766 0.000000
0.036942 0.019126 0.001080
0.048516 0.020775 0.002100
0.062805 0.022475 0.003120
0.080574 0.024175 0.004141
0.103582 0.025876 0.005161
0.132097 0.027576 0.006235
0.167133 0.029661 0.007425
0.209715 0.032041 0.008615
0.266439 0.034421 0.009806
0.337040 0.036802 0.010996
0.423597 0.039182 0.012192
0.528589 0.041802 0.013552
0.665957 0.045032 0.014912
0.839003 0.048263 0.016272
1.000000 0.051493 0.017633
1.000000 0.054724 0.018993
1.000000 0.057954 0.020608
1.000000 0.062372 0.022309
1.000000 0.066793 0.024009
1.000000 0.071213 0.025709
1.000000 0.075634 0.027409
1.000000 0.080054 0.029427
1.000000 0.085446 0.031808
1.000000 0.091227 0.034188
1.000000 0.097008 0.036568
0.000000 0.020808 0.000000
0.002120 0.020808 0.000000
0.005201 0.020808 0.000000
0.008685 0.020808 0.000000
0.012299 0.020808 0.000000
0.016406 0.020808 0.000000
0.020808 0.020808 0.000000
0.027643 0.022509 0.000000
0.036942 0.024209 0.001080
0.048516 0.025909 0.002100
0.062805 0.027609 0.003120
0.080574 0.029707 0.004141
0.103582 0.032088 0.005161
0.132097 0.034468 0.006235
0.167133 0.036848 0.007425
0.209715 0.039229 0.008615
0.266439 0.041865 0.009806
0.337040 0.045096 0.010996
0.423597 0.048326 0.012192
0.528589 0.051556 0.013552
0.665957 0.054787 0.014912
0.839003 0.058038 0.016272
1.000000 0.062459 0.017633
1.000000 0.066879 0.018993
1.000000 0.071300 0.020608
1.000000 0.075720 0.022309
1.000000 0.080141 0.024009
1.000000 0.085560 0.025709
1.000000 0.091340 0.027409
1.000000 0.097121 0.029427
1.000000 0.102902 0.031808
1.000000 0.108683 0.034188
1.000000 0.115381 0.036568
0.000000 0.027643 0.000000
0.003140 0.027643 0.000000
0.006282 0.027643 0.000000
0.009876 0.027643 0.000000
0.013659 0.027643 0.000000
0.017766 0.027643 0.000000
0.022509 0.027643 0.000000
0.027643 0.027643 0.000000
0.036942 0.029754 0.001080
0.048516 0.032134 0.002100
0.062805 0.034515 0.003120
0.080574 0.036895 0.004141
0.103582 0.039275 0.005161
0.132097 0.041928 0.006235
0.167133 0.045159 0.007425
0.209716 0.048389 0.008615
0.266439 0.051620 0.009806
0.337040 0.054850 0.010996
0.423597 0.058125 0.012192
0.528589 0.062545 0.013552
0.665957 0.066966 0.014912
0.839003 0.071387 0.016272
1.000000 0.075807 0.017633
1.000000 0.080228 0.018993
1.000000 0.085673 0.020608
1.000000 0.091454 0.022309
1.000000 0.097234 0.024009
1.000000 0.103015 0.025709
1.000000 0.108796 0.027409
1.000000 0.115535 0.029427
1.000000 0.123356 0.031808
1.000000 0.131177 0.034188
1.000000 0.138998 0.036568
0.001080 0.036942 0.001080
0.004161 0.036942 0.001080
0.007472 0.036942 0.001080
0.011066 0.036942 0.001080
0.015019 0.036942 0.001080
0.019126 0.036942 0.001080
0.024209 0.036942 0.001080
0.029754 0.036942 0.001080
0.036942 0.036942 0.001080
0.048516 0.039322 0.002100
0.062805 0.041992 0.003120
0.080574 0.045222 0.004141
0.103582 0.048453 0.005161
0.132097 0.051683 0.006235
0.167133 0.054914 0.007425
0.209715 0.058212 0.008615
0.266439 0.062632 0.009806
0.337040 0.067053 0.010996
0.423597 0.071473 0.012192
0.528589 0.075894 0.013552
0.665957 0.080314 0.014912
0.839003 0.085786 0.016272
1.000000 0.091567 0.017633
1.000000 0.097348 0.018993
1.000000 0.103129 0.020608
1.000000 0.108909 0.022309
1.000000 0.115688 0.024009
1.000000 0.123509 0.025709
1.000000 0.131330 0.027409
1.000000 0.139151 0.029427
1.000000 0.146972 0.031808
1.000000 0.155352 0.034188
1.000000 0.165893 0.036568
0.002100 0.048516 0.002100
0.005181 0.048516 0.002100
0.008662 0.048516 0.002100
0.012272 0.048516 0.002100
0.016379 0.048516 0.002100
0.020775 0.048516 0.002100
0.025909 0.048516 0.002100
0.032134 0.048516 0.002100
0.039322 0.048516 0.002100
0.048516 0.048516 0.002100
0.062805 0.051746 0.003120
0.080574 0.054977 0.004141
0.103582 0.058298 0.005161
0.132097 0.062719 0.006235
0.167133 0.067139 0.007425
0.209715 0.071560 0.008615
0.266439 0.075980 0.009806
0.337040 0.080401 0.010996
0.423597 0.085900 0.012192
0.528589 0.091680 0.013552
0.665957 0.097461 0.014912
0.839003 0.103242 0.016272
1.000000 0.109023 0.017633
1.000000 0.115841 0.018993
1.000000 0.123662 0.020608
1.000000 0.131483 0.022309
1.000000 0.139304 0.024009
1.000000 0.147125 0.025709
1.000000 0.155558 0.027409
1.000000 0.166100 0.029427
1.000000 0.176641 0.031808
1.000000 0.187183 0.034188
1.000000 0.197724 0.036568
0.003120 0.062805 0.003120
0.006258 0.062805 0.003120
0.009852 0.062805 0.003120
0.013632 0.062805 0.003120
0.017739 0.062805 0.003120
0.022475 0.062805 0.003120
0.027609 0.062805 0.003120
0.034515 0.062805 0.003120
0.041992 0.062805 0.003120
0.051746 0.062805 0.003120
0.062805 0.062805 0.003120
0.080574 0.067226 0.004141
0.103582 0.071647 0.005161
0.132097 0.076067 0.006235
0.167133 0.080488 0.007425
0.209715 0.086013 0.008615
0.266439 0.091794 0.009806
0.337040 0.097574 0.010996
0.423597 0.103355 0.012192
0.528589 0.109136 0.013552
0.665957 0.115995 0.014912
0.839003 0.123816 0.016272
1.000000 0.131637 0.017633
1.000000 0.139458 0.018993
1.000000 0.147279 0.020608
1.000000 0.155765 0.022309
1.000000 0.166307 0.024009
1.000000 0.176848 0.025709
1.000000 0.187389 0.027409
1.000000 0.197931 0.029427
1.000000 0.208472 0.031808
1.000000 0.222444 0.034188
1.000000 0.236556 0.036568
0.004141 0.080574 0.004141
0.007449 0.080574 0.004141
0.011042 0.080574 0.004141
0.014992 0.080574 0.004141
0.019099 0.080574 0.004141
0.024175 0.080574 0.004141
0.029707 0.080574 0.004141
0.036895 0.080574 0.004141
0.045222 0.080574 0.004141
0.054977 0.080574 0.004141
0.067226 0.080574 0.004141
0.080574 0.080574 0.004141
0.103582 0.086126 0.005161
0.132097 0.091907 0.006235
0.167133 0.097688 0.007425
0.209715 0.103469 0.008615
0.266439 0.109249 0.009806
0.337040 0.116148 0.010996
0.423597 0.123969 0.012192
0.528589 0.131790 0.013552
0.665957 0.139611 0.014912
0.839003 0.147432 0.016272
1.000000 0.155972 0.017633
1.000000 0.166513 0.018993
1.000000 0.177055 0.020608
1.000000 0.187596 0.022309
1.000000 0.198137 0.024009
1.000000 0.208679 0.025709
1.000000 0.222721 0.027409
1.000000 0.236832 0.029427
1.000000 0.250944 0.031808
1.000000 0.265056 0.034188
1.000000 0.279168 0.036568
0.005161 0.103582 0.005161
0.008639 0.103582 0.005161
0.012245 0.103582 0.005161
0.016352 0.103582 0.005161
0.020742 0.103582 0.005161
0.025876 0.103582 0.005161
0.032088 0.103582 0.005161
0.039275 0.103582 0.005161
0.048453 0.103582 0.005161
0.058298 0.103582 0.005161
0.071647 0.103582 0.005161
0.086126 0.103582 0.005161
0.103582 0.103582 0.005161
0.132097 0.109363 0.006235
0.167133 0.116301 0.007425
0.209715 0.124122 0.008615
0.266439 0.131944 0.009806
0.337040 0.139765 0.010996
0.423597 0.147586 0.012192
0.528589 0.156179 0.013552
0.665957 0.166720 0.014912
0.839003 0.177261 0.016272
1.000000 0.187803 0.017633
1.000000 0.198344 0.018993
1.000000 0.208885 0.020608
1.000000 0.222997 0.022309
1.000000 0.237109 0.024009
1.000000 0.251221 0.025709
1.000000 0.265333 0.027409
1.000000 0.279444 0.029427
1.000000 0.297088 0.031808
1.000000 0.316130 0.034188
1.000000 0.335173 0.036568
0.006235 0.132097 0.006235
0.009829 0.132097 0.006235
0.013605 0.132097 0.006235
0.017713 0.132097 0.006235
0.022442 0.132097 0.006235
0.027576 0.132097 0.006235
0.034468 0.132097 0.006235
0.041928 0.132097 0.006235
0.051683 0.132097 0.006235
0.062719 0.132097 0.006235
0.076067 0.132097 0.006235
0.091907 0.132097 0.006235
0.109363 0.132097 0.006235
0.132097 0.132097 0.006235
0.167133 0.139918 0.007425
0.209715 0.147739 0.008615
0.266439 0.156385 0.009806
0.337040 0.166927 0.010996
0.423597 0.177468 0.012192
0.528589 0.188009 0.013552
0.665957 0.198551 0.014912
0.839003 0.209162 0.016272
1.000000 0.223274 0.017633
1.000000 0.237386 0.018993
1.000000 0.251498 0.020608
1.000000 0.265609 0.022309
1.000000 0.279721 0.024009
1.000000 0.297461 0.025709
1.000000 0.316504 0.027409
1.000000 0.335546 0.029427
1.000000 0.354588 0.031808
1.000000 0.373631 0.034188
1.000000 0.395594 0.036568
0.007425 0.167133 0.007425
0.011019 0.167133 0.007425
0.014966 0.167133 0.007425
0.019073 0.167133 0.007425
0.024142 0.167133 0.007425
0.029661 0.167133 0.007425
0.036848 0.167133 0.007425
0.045159 0.167133 0.007425
0.054913 0.167133 0.007425
0.067139 0.167133 0.007425
0.080488 0.167133 0.007425
0.097688 0.167133 0.007425
0.116301 0.167133 0.007425
0.139918 0.167133 0.007425
0.167133 0.167133 0.007425
0.209716 0.177675 0.008615
0.266439 0.188216 0.009806
0.337040 0.198757 0.010996
0.423597 0.209439 0.012192
0.528589 0.223551 0.013552
0.665957 0.237662 0.014912
0.839003 0.251774 0.016272
1.000000 0.265886 0.017633
1.000000 0.279998 0.018993
1.000000 0.297834 0.020608
1.000000 0.316877 0.022309
1.000000 0.335919 0.024009
1.000000 0.354962 0.025709
1.000000 0.374004 0.027409
1.000000 0.396094 0.029427
1.000000 0.421597 0.031808
1.000000 0.447100 0.034188
1.000000 0.472604 0.036568
0.008615 0.209715 0.008615
0.012219 0.209715 0.008615
0.016326 0.209715 0.008615
0.020708 0.209715 0.008615
0.025842 0.209715 0.008615
0.032041 0.209715 0.008615
0.039229 0.209715 0.008615
0.048389 0.209716 0.008615
0.058211 0.209715 0.008615
0.071560 0.209715 0.008615
0.086013 0.209715 0.008615
0.103469 0.209715 0.008615
0.124122 0.209715 0.008615
0.147739 0.209715 0.008615
0.177675 0.209716 0.008615
0.209715 0.209715 0.008615
0.266439 0.223827 0.009806
0.337040 0.237939 0.010996
0.423597 0.252051 0.012192
0.528589 0.266163 0.013552
0.665957 0.280275 0.014912
0.839003 0.298208 0.016272
1.000000 0.317250 0.017633
1.000000 0.336293 0.018993
1.000000 0.355335 0.020608
1.000000 0.374378 0.022309
1.000000 0.396594 0.024009
1.000000 0.422097 0.025709
1.000000 0.447601 0.027409
1.000000 0.473104 0.029427
1.000000 0.498607 0.031808
1.000000 0.525909 0.034188
1.000000 0.560083 0.036568
0.009806 0.266439 0.009806
0.013579 0.266439 0.009806
0.017686 0.266439 0.009806
0.022409 0.266439 0.009806
0.027543 0.266439 0.009806
0.034421 0.266439 0.009806
0.041865 0.266439 0.009806
0.051620 0.266439 0.009806
0.062632 0.266439 0.009806
0.075980 0.266439 0.009806
0.091794 0.266439 0.009806
0.109249 0.266439 0.009806
0.131943 0.266439 0.009806
0.156385 0.266439 0.009806
0.188216 0.266439 0.009806
0.223827 0.266439 0.009806
0.266439 0.266439 0.009806
0.337040 0.280551 0.010996
0.423597 0.298581 0.012192
0.528589 0.317624 0.013552
0.665957 0.336666 0.014912
0.839003 0.355709 0.016272
1.000000 0.374751 0.017633
1.000000 0.397094 0.018993
1.000000 0.422597 0.020608
1.000000 0.448101 0.022309
1.000000 0.473604 0.024009
1.000000 0.499107 0.025709
1.000000 0.526579 0.027409
1.000000 0.560754 0.029427
1.000000 0.594928 0.031808
1.000000 0.629102 0.034188
1.000000 0.663277 0.036568
0.010996 0.337040 0.010996
0.014939 0.337040 0.010996
0.019046 0.337040 0.010996
0.024109 0.337040 0.010996
0.029614 0.337040 0.010996
0.036802 0.337040 0.010996
0.045096 0.337040 0.010996
0.054850 0.337040 0.010996
0.067053 0.337040 0.010996
0.080401 0.337040 0.010996
0.097574 0.337040 0.010996
0.116148 0.337040 0.010996
0.139765 0.337040 0.010996
0.166927 0.337040 0.010996
0.198757 0.337040 0.010996
0.237939 0.337040 0.010996
0.280551 0.337040 0.010996
0.337040 0.337040 0.010996
0.423597 0.356082 0.012192
0.528589 0.375124 0.013552
0.665957 0.397594 0.014912
0.839003 0.423097 0.016272
1.000000 0.448601 0.017633
1.000000 0.474104 0.018993
1.000000 0.499607 0.020608
1.000000 0.527249 0.022309
1.000000 0.561424 0.024009
1.000000 0.595598 0.025709
1.000000 0.629772 0.027409
1.000000 0.663947 0.029427
1.000000 0.698121 0.031808
1.000000 0.743591 0.034188
1.000000 0.789497 0.036568
0.012192 0.423597 0.012192
0.016299 0.423597 0.012192
0.020675 0.423597 0.012192
0.025809 0.423597 0.012192
0.031994 0.423597 0.012192
0.039182 0.423597 0.012192
0.048326 0.423597 0.012192
0.058125 0.423597 0.012192
0.071473 0.423597 0.012192
0.085900 0.423597 0.012192
0.103355 0.423597 0.012192
0.123969 0.423597 0.012192
0.147585 0.423597 0.012192
0.177468 0.423597 0.012192
0.209439 0.423597 0.012192
0.252051 0.423597 0.012192
0.298581 0.423597 0.012192
0.356082 0.423597 0.012192
0.423597 0.423597 0.012192
0.528589 0.449101 0.013552
0.665957 0.474604 0.014912
0.839003 0.500107 0.016272
1.000000 0.527920 0.017633
1.000000 0.562094 0.018993
1.000000 0.596268 0.020608
1.000000 0.630443 0.022309
1.000000 0.664617 0.024009
1.000000 0.698792 0.025709
1.000000 0.744492 0.027409
1.000000 0.790398 0.029427
1.000000 0.836303 0.031808
1.000000 0.882210 0.034188
1.000000 0.928116 0.036568
0.013552 0.528589 0.013552
0.017659 0.528589 0.013552
0.022375 0.528589 0.013552
0.027509 0.528589 0.013552
0.034375 0.528589 0.013552
0.041802 0.528589 0.013552
0.051556 0.528589 0.013552
0.062545 0.528589 0.013552
0.075894 0.528589 0.013552
0.091680 0.528589 0.013552
0.109136 0.528589 0.013552
0.131790 0.528589 0.013552
0.156179 0.528589 0.013552
0.188009 0.528589 0.013552
0.223551 0.528589 0.013552
0.266163 0.528589 0.013552
0.317624 0.528589 0.013552
0.375124 0.528589 0.013552
0.449101 0.528589 0.013552
0.528589 0.528589 0.013552
0.665957 0.562764 0.014912
0.839003 0.596938 0.016272
1.000000 0.631113 0.017633
1.000000 0.665287 0.018993
1.000000 0.699486 0.020608
1.000000 0.745391 0.022309
1.000000 0.791298 0.024009
1.000000 0.837204 0.025709
1.000000 0.883110 0.027409
1.000000 0.929015 0.029427
1.000000 0.986278 0.031808
1.000000 1.000000 0.034188
1.000000 1.000000 0.036568
0.014912 0.665957 0.014912
0.019019 0.665957 0.014912
0.024075 0.665957 0.014912
0.029567 0.665957 0.014912
0.036755 0.665957 0.014912
0.045032 0.665957 0.014912
0.054787 0.665957 0.014912
0.066966 0.665957 0.014912
0.080314 0.665957 0.014912
0.097461 0.665957 0.014912
0.115995 0.665957 0.014912
0.139611 0.665957 0.014912
0.166720 0.665957 0.014912
0.198551 0.665957 0.014912
0.237662 0.665957 0.014912
0.280275 0.665957 0.014912
0.336666 0.665957 0.014912
0.397594 0.665957 0.014912
0.474604 0.665957 0.014912
0.562764 0.665957 0.014912
0.665957 0.665957 0.014912
0.839003 0.700386 0.016272
1.000000 0.746292 0.017633
1.000000 0.792198 0.018993
1.000000 0.838104 0.020608
1.000000 0.884010 0.022309
1.000000 0.929916 0.024009
1.000000 0.987489 0.025709
1.000000 1.000000 0.027409
1.000000 1.000000 0.029427
1.000000 1.000000 0.031808
1.000000 1.000000 0.034188
1.000000 1.000000 0.036568
0.016272 0.839003 0.016272
0.020642 0.839003 0.016272
0.025776 0.839003 0.016272
0.031948 0.839003 0.016272
0.039135 0.839003 0.016272
0.048263 0.839003 0.016272
0.058038 0.839003 0.016272
0.071387 0.839003 0.016272
0.085786 0.839003 0.016272
0.103242 0.839003 0.016272
0.123816 0.839003 0.016272
0.147432 0.839003 0.016272
0.177261 0.839003 0.016272
0.209162 0.839003 0.016272
0.251774 0.839003 0.016272
0.298208 0.839003 0.016272
0.355708 0.839003 0.016272
0.423097 0.839003 0.016272
0.500107 0.839003 0.016272
0.596938 0.839003 0.016272
0.700386 0.839003 0.016272
0.839003 0.839003 0.016272
1.000000 0.884909 0.017633
1.000000 0.930816 0.018993
1.000000 0.988699 0.020608
1.000000 1.000000 0.022309
1.000000 1.000000 0.024009
1.000000 1.000000 0.025709
1.000000 1.000000 0.027409
1.000000 1.000000 0.029427
1.000000 1.000000 0.031808
1.000000 1.000000 0.034188
1.000000 1.000000 0.036568
0.017633 1.000000 0.017633
0.022342 1.000000 0.017633
0.027476 1.000000 0.017633
0.034328 1.000000 0.017633
0.041738 1.000000 0.017633
0.051493 1.000000 0.017633
0.062459 1.000000 0.017633
0.075807 1.000000 0.017633
0.091567 1.000000 0.017633
0.109023 1.000000 0.017633
0.131637 1.000000 0.017633
0.155972 1.000000 0.017633
0.187803 1.000000 0.017633
0.223274 1.000000 0.017633
0.265886 1.000000 0.017633
0.317250 1.000000 0.017633
0.374751 1.000000 0.017633
0.448601 1.000000 0.017633
0.527919 1.000000 0.017633
0.631112 1.000000 0.017633
0.746292 1.000000 0.017633
0.884909 1.000000 0.017633
1.000000 1.000000 0.017633
1.000000 1.000000 0.018993
1.000000 1.000000 0.020608
1.000000 1.000000 0.022309
1.000000 1.000000 0.024009
1.000000 1.000000 0.025709
1.000000 1.000000 0.027409
1.000000 1.000000 0.029427
1.000000 1.000000 0.031808
1.000000 1.000000 0.034188
1.000000 1.000000 0.036568
0.018993 1.000000 0.018993
0.024042 1.000000 0.018993
0.029521 1.000000 0.018993
0.036708 1.000000 0.018993
0.044969 1.000000 0.018993
0.054723 1.000000 0.018993
0.066879 1.000000 0.018993
0.080228 1.000000 0.018993
0.097348 1.000000 0.018993
0.115841 1.000000 0.018993
0.139458 1.000000 0.018993
0.166513 1.000000 0.018993
0.198344 1.000000 0.018993
0.237386 1.000000 0.018993
0.279998 1.000000 0.018993
0.336293 1.000000 0.018993
0.397094 1.000000 0.018993
0.474104 1.000000 0.018993
0.562094 1.000000 0.018993
0.665287 1.000000 0.018993
0.792198 1.000000 0.018993
0.930816 1.000000 0.018993
1.000000 1.000000 0.018993
1.000000 1.000000 0.018993
1.000000 1.000000 0.020608
1.000000 1.000000 0.022309
1.000000 1.000000 0.024009
1.000000 1.000000 0.025709
1.000000 1.000000 0.027409
1.000000 1.000000 0.029427
1.000000 1.000000 0.031808
1.000000 1.000000 0.034188
1.000000 1.000000 0.036568
0.020608 1.000000 0.020608
0.025742 1.000000 0.020608
0.031901 1.000000 0.020608
0.039089 1.000000 0.020608
0.048199 1.000000 0.020608
0.057954 1.000000 0.020608
0.071300 1.000000 0.020608
0.085673 1.000000 0.020608
0.103128 1.000000 0.020608
0.123662 1.000000 0.020608
0.147279 1.000000 0.020608
0.177055 1.000000 0.020608
0.208885 1.000000 0.020608
0.251498 1.000000 0.020608
0.297834 1.000000 0.020608
0.355335 1.000000 0.020608
0.422597 1.000000 0.020608
0.499607 1.000000 0.020608
0.596268 1.000000 0.020608
0.699486 1.000000 0.020608
0.838104 1.000000 0.020608
0.988699 1.000000 0.020608
1.000000 1.000000 0.020608
1.000000 1.000000 0.020608
1.000000 1.000000 0.020608
1.000000 1.000000 0.022309
1.000000 1.000000 0.024009
1.000000 1.000000 0.025709
1.000000 1.000000 0.027409
1.000000 1.000000 0.029427
1.000000 1.000000 0.031808
1.000000 1.000000 0.034188
1.000000 1.000000 0.036568
0.022309 1.000000 0.022309
0.027443 1.000000 0.022309
0.034281 1.000000 0.022309
0.041675 1.000000 0.022309
0.051430 1.000000 0.022309
0.062372 1.000000 0.022309
0.075720 1.000000 0.022309
0.091454 1.000000 0.022309
0.108909 1.000000 0.022309
0.131483 1.000000 0.022309
0.155765 1.000000 0.022309
0.187596 1.000000 0.022309
0.222997 1.000000 0.022309
0.265609 1.000000 0.022309
0.316877 1.000000 0.022309
0.374378 1.000000 0.022309
0.448101 1.000000 0.022309
0.527249 1.000000 0.022309
0.630443 1.000000 0.022309
0.745391 1.000000 0.022309
0.884009 1.000000 0.022309
1.000000 1.000000 0.022309
1.000000 1.000000 0.022309
1.000000 1.000000 0.022309
1.000000 1.000000 0.022309
1.000000 1.000000 0.022309
1.000000 1.000000 0.024009
1.000000 1.000000 0.025709
1.000000 1.000000 0.027409
1.000000 1.000000 0.029427
1.000000 1.000000 0.031808
1.000000 1.000000 0.034188
1.000000 1.000000 0.036568
0.024009 1.000000 0.024009
0.029474 1.000000 0.024009
0.036662 1.000000 0.024009
0.044906 1.000000 0.024009
0.054660 1.000000 0.024009
0.066793 1.000000 0.024009
0.080141 1.000000 0.024009
0.097234 1.000000 0.024009
0.115688 1.000000 0.024009
0.139304 1.000000 0.024009
0.166306 1.000000 0.024009
0.198137 1.000000 0.024009
0.237109 1.000000 0.024009
0.279721 1.000000 0.024009
0.335919 1.000000 0.024009
0.396594 1.000000 0.024009
0.473604 1.000000 0.024009
0.561424 1.000000 0.024009
0.664617 1.000000 0.024009
0.791298 1.000000 0.024009
0.929915 1.000000 0.024009
1.000000 1.000000 0.024009
1.000000 1.000000 0.024009
1.000000 1.000000 0.024009
