Light/Corridor/Assets/PostProcessing-2/PostProcessing/Textures/LUTs/myLUTPS.cube.cube
#Created by: Adobe Photoshop Export Color Lookup Plugin
TITLE "myLUTPS"
#LUT size
LUT_3D_SIZE 5
#data domain
DOMAIN_MIN 0.0 0.0 0.0
DOMAIN_MAX 1.0 1.0 1.0
#LUT data points
0.000000 0.000000 0.000000
0.036942 0.001080 0.001080
0.266439 0.009806 0.009806
1.000000 0.020608 0.020608
1.000000 0.036568 0.036568
0.001080 0.036942 0.001080
0.036942 0.036942 0.001080
0.266439 0.062632 0.009806
1.000000 0.103129 0.020608
1.000000 0.165893 0.036568
0.009806 0.266439 0.009806
0.062632 0.266439 0.009806
0.266439 0.266439 0.009806
1.000000 0.422597 0.020608
1.000000 0.663277 0.036568
0.020608 1.000000 0.020608
0.103128 1.000000 0.020608
0.422597 1.000000 0.020608
1.000000 1.000000 0.020608
1.000000 1.000000 0.036568
0.036568 1.000000 0.036568
0.165893 1.000000 0.036568
0.663277 1.000000 0.036568
1.000000 1.000000 0.036568
1.000000 1.000000 0.036568
0.001080 0.001080 0.036942
0.036942 0.001080 0.036942
0.266439 0.009806 0.062632
1.000000 0.020608 0.103129
1.000000 0.036568 0.165893
0.001080 0.036942 0.036942
0.062632 0.062632 0.062632
0.422597 0.103129 0.103129
1.000000 0.165893 0.165893
1.000000 0.264226 0.264226
0.009806 0.266439 0.062632
0.103129 0.422597 0.103129
0.422597 0.422597 0.103129
1.000000 0.663277 0.165893
1.000000 1.000000 0.264226
0.020608 1.000000 0.103129
0.165893 1.000000 0.165893
0.663277 1.000000 0.165893
1.000000 1.000000 0.165893
1.000000 1.000000 0.264226
0.036568 1.000000 0.165893
0.264226 1.000000 0.264226
1.000000 1.000000 0.264226
1.000000 1.000000 0.264226
1.000000 1.000000 0.264226
0.009806 0.009806 0.266439
0.062632 0.009806 0.266439
0.266439 0.009806 0.266439
1.000000 0.020608 0.422597
1.000000 0.036568 0.663276
0.009806 0.062632 0.266439
0.103129 0.103129 0.422597
0.422597 0.103129 0.422597
1.000000 0.165893 0.663277
1.000000 0.264226 1.000000
0.009806 0.266440 0.266439
0.103129 0.422597 0.422597
0.663277 0.663277 0.663277
1.000000 1.000000 1.000000
1.000000 1.000000 1.000000
0.020608 1.000000 0.422598
0.165893 1.000000 0.663277
1.000000 1.000000 1.000000
1.000000 1.000000 1.000000
1.000000 1.000000 1.000000
0.036568 1.000000 0.663277
0.264226 1.000000 1.000000
1.000000 1.000000 1.000000
1.000000 1.000000 1.000000
1.000000 1.000000 1.000000
0.020608 0.020608 1.000000
0.103129 0.020608 1.000000
0.422598 0.020608 1.000000
1.000000 0.020608 1.000000
1.000000 0.036568 1.000000
0.020608 0.103129 1.000000
0.165893 0.165893 1.000000
0.663277 0.165893 1.000000
1.000000 0.165893 1.000000
1.000000 0.264226 1.000000
0.020608 0.422597 1.000000
0.165893 0.663277 1.000000
1.000000 1.000000 1.000000
1.000000 1.000000 1.000000
1.000000 1.000000 1.000000
0.020608 1.000000 1.000000
0.165893 1.000000 1.000000
1.000000 1.000000 1.000000
1.000000 1.000000 1.000000
1.000000 1.000000 1.000000
0.036568 1.000000 1.000000
0.264226 1.000000 1.000000
1.000000 1.000000 1.000000
1.000000 1.000000 1.000000
1.000000 1.000000 1.000000
0.036568 0.036568 1.000000
0.165893 0.036568 1.000000
0.663276 0.036568 1.000000
1.000000 0.036568 1.000000
1.000000 0.036568 1.000000
0.036568 0.165893 1.000000
0.264226 0.264226 1.000000
1.000000 0.264226 1.000000
1.000000 0.264226 1.000000
1.000000 0.264226 1.000000
0.036568 0.663276 1.000000
0.264226 1.000000 1.000000
1.000000 1.000000 1.000000
1.000000 1.000000 1.000000
1.000000 1.000000 1.000000
0.036568 1.000000 1.000000
0.264226 1.000000 1.000000
1.000000 1.000000 1.000000
1.000000 1.000000 1.000000
1.000000 1.000000 1.000000
0.036568 1.000000 1.000000
0.264226 1.000000 1.000000
1.000000 1.000000 1.000000
1.000000 1.000000 1.000000
1.000000 1.000000 1.000000
